; generated by Slic3r 0.9.3-dev on 2012-10-06 at 03:14:14

; layer_height = 0.25
; perimeters = 2
; solid_layers = 3
; fill_density = 1.0
; perimeter_speed = 50
; infill_speed = 90
; travel_speed = 150
; scale = 1
; nozzle_diameter = 0.4
; filament_diameter = 3
; extrusion_multiplier = 1.05
; single wall width = 0.53mm
; first layer single wall width = 0.50mm

M107
M104 S190 ; set temperature
G28 ; home all axes
M104 S190
G1 Z0 F100
M109 S190 ; wait for temperature to be reached
G90 ; use absolute coordinates
G21 ; set units to millimeters
G92 E0
M82 ; use absolute distances for extrusion
G1 F1800.000 E-1.00000
G92 E0
G1 Z0.250 F9000.000
G1 X50.190 Y45.263
G1 F1800.000 E1.00000
G1 X50.630 Y44.843 F1500.000 E1.01081
G1 X51.110 Y44.453 E1.02180
G1 X52.090 Y43.793 E1.04280
G1 X52.860 Y43.343 E1.05865
G1 X53.660 Y42.943 E1.07454
G1 X54.210 Y42.723 E1.08507
G1 X54.770 Y42.553 E1.09547
G1 X55.350 Y42.433 E1.10599
G1 X55.930 Y42.363 E1.11638
G1 X56.520 Y42.333 E1.12688
G1 X143.720 Y42.473 E2.67652
G1 X143.970 Y42.493 E2.68098
G1 X145.590 Y42.783 E2.71022
G1 X146.200 Y42.953 E2.72148
G1 X147.080 Y43.313 E2.73837
G1 X147.900 Y43.793 E2.75526
G1 X148.880 Y44.453 E2.77626
G1 X149.360 Y44.843 E2.78725
G1 X149.800 Y45.263 E2.79806
G1 X150.200 Y45.723 E2.80889
G1 X151.210 Y47.213 E2.84088
G1 X151.360 Y47.473 E2.84621
G1 X151.620 Y48.013 E2.85686
G1 X151.840 Y48.563 E2.86739
G1 X151.930 Y48.853 E2.87279
G1 X152.300 Y50.593 E2.90440
G1 X152.370 Y51.133 E2.91408
G1 X152.670 Y146.633 E4.61123
G1 X152.460 Y149.633 E4.66467
G1 X152.350 Y150.203 E4.67499
G1 X152.280 Y150.483 E4.68012
G1 X152.100 Y151.033 E4.69040
G1 X151.880 Y151.573 E4.70076
G1 X150.840 Y153.363 E4.73755
G1 X150.290 Y154.143 E4.75451
G1 X149.880 Y154.633 E4.76587
G1 X149.430 Y155.083 E4.77718
G1 X148.940 Y155.483 E4.78842
G1 X147.950 Y156.173 E4.80986
G1 X147.040 Y156.703 E4.82858
G1 X146.210 Y157.093 E4.84488
G1 X145.630 Y157.313 E4.85590
G1 X145.330 Y157.403 E4.86147
G1 X144.720 Y157.543 E4.87259
G1 X144.100 Y157.623 E4.88370
G1 X110.310 Y157.693 E5.48418
G1 X56.610 Y157.543 E6.43850
G1 X55.680 Y157.443 E6.45512
G1 X55.380 Y157.393 E6.46053
G1 X55.280 Y157.383 E6.46231
G1 X54.440 Y157.223 E6.47751
G1 X54.160 Y157.153 E6.48264
G1 X53.600 Y156.973 E6.49309
G1 X53.060 Y156.753 E6.50345
G1 X52.530 Y156.483 E6.51402
G1 X51.070 Y155.503 E6.54527
G1 X50.610 Y155.123 E6.55587
G1 X50.190 Y154.723 E6.56618
G1 X49.620 Y154.043 E6.58195
G1 X48.800 Y152.813 E6.60822
G1 X48.510 Y152.283 E6.61896
G1 X48.260 Y151.723 E6.62986
G1 X48.150 Y151.433 E6.63537
G1 X47.980 Y150.853 E6.64611
G1 X47.650 Y149.113 E6.67758
G1 X47.620 Y148.843 E6.68241
G1 X47.320 Y53.353 E8.37938
G1 X47.500 Y50.633 E8.42783
G1 X47.650 Y49.763 E8.44351
G1 X47.720 Y49.483 E8.44864
G1 X47.900 Y48.923 E8.45910
G1 X48.130 Y48.373 E8.46969
G1 X48.940 Y46.963 E8.49859
G1 X49.790 Y45.723 E8.52531
G1 X50.141 Y45.320 E8.53481
G1 X50.550 Y45.603 F9000.000
G1 X50.960 Y45.203 F1500.000 E8.54499
G1 X51.630 Y44.683 E8.56006
G1 X52.360 Y44.193 E8.57568
G1 X53.080 Y43.783 E8.59041
G1 X53.890 Y43.383 E8.60646
G1 X54.170 Y43.263 E8.61187
G1 X54.740 Y43.073 E8.62255
G1 X55.030 Y42.993 E8.62790
G1 X55.620 Y42.883 E8.63856
G1 X56.520 Y42.823 E8.65459
G1 X143.690 Y42.963 E10.20370
G1 X144.150 Y43.013 E10.21193
G1 X145.480 Y43.263 E10.23598
G1 X145.760 Y43.333 E10.24111
G1 X146.050 Y43.423 E10.24650
G1 X146.600 Y43.633 E10.25696
G1 X146.860 Y43.753 E10.26205
G1 X147.380 Y44.033 E10.27255
G1 X148.590 Y44.853 E10.29852
G1 X149.030 Y45.203 E10.30852
G1 X149.440 Y45.603 E10.31869
G1 X149.820 Y46.033 E10.32889
G1 X149.990 Y46.253 E10.33383
G1 X150.810 Y47.493 E10.36025
G1 X151.100 Y48.043 E10.37130
G1 X151.230 Y48.333 E10.37695
G1 X151.440 Y48.923 E10.38808
G1 X151.820 Y50.663 E10.41973
G1 X151.880 Y51.173 E10.42885
G1 X152.180 Y146.603 E12.12476
G1 X152.000 Y149.323 E12.17321
G1 X151.850 Y150.193 E12.18889
G1 X151.680 Y150.763 E12.19946
G1 X151.330 Y151.583 E12.21531
G1 X150.620 Y152.813 E12.24055
G1 X149.900 Y153.843 E12.26288
G1 X149.520 Y154.303 E12.27348
G1 X149.320 Y154.513 E12.27864
G1 X148.880 Y154.913 E12.28921
G1 X147.680 Y155.763 E12.31534
G1 X146.830 Y156.263 E12.33286
G1 X145.750 Y156.753 E12.35394
G1 X144.920 Y157.003 E12.36934
G1 X144.350 Y157.103 E12.37963
G1 X143.480 Y157.163 E12.39513
G1 X110.310 Y157.203 E12.98459
G1 X56.630 Y157.053 E13.93855
G1 X55.760 Y156.963 E13.95410
G1 X55.460 Y156.913 E13.95950
G1 X54.230 Y156.663 E13.98181
G1 X53.650 Y156.473 E13.99265
G1 X52.830 Y156.083 E14.00879
G1 X52.570 Y155.933 E14.01412
G1 X51.330 Y155.083 E14.04084
G1 X50.860 Y154.693 E14.05169
G1 X50.640 Y154.483 E14.05710
G1 X50.230 Y154.023 E14.06805
G1 X49.860 Y153.533 E14.07896
G1 X49.220 Y152.563 E14.09961
G1 X48.940 Y152.063 E14.10980
G1 X48.820 Y151.803 E14.11488
G1 X48.530 Y151.003 E14.13001
G1 X48.170 Y149.303 E14.16089
G1 X48.110 Y148.803 E14.16984
G1 X47.810 Y53.383 E15.86557
G1 X47.990 Y50.663 E15.91401
G1 X48.080 Y50.063 E15.92479
G1 X48.320 Y49.193 E15.94083
G1 X48.550 Y48.633 E15.95159
G1 X49.350 Y47.233 E15.98024
G1 X50.000 Y46.253 E16.00114
G1 X50.170 Y46.033 E16.00608
G1 X50.500 Y45.659 E16.01495
G1 F1800.000 E15.01495
G92 E0
G1 X117.348 Y52.781 F9000.000
G1 F1800.000 E1.00000
G1 X117.838 Y52.263 F1500.000 E1.01267
G1 X118.463 Y52.070 E1.02431
G1 X119.870 Y52.157 E1.04936
G1 X121.185 Y52.481 E1.07343
G1 X121.365 Y52.572 E1.07701
G1 X121.365 Y52.572 E1.07701
G1 X121.744 Y52.761 E1.08453
G1 X122.250 Y53.127 E1.09563
G1 X122.704 Y53.641 E1.10782
G1 X123.273 Y52.931 E1.12399
G1 X124.488 Y52.268 E1.14859
G1 X125.136 Y52.171 E1.16023
G1 X125.136 Y52.046 E1.16244
G1 X125.770 Y52.074 E1.17371
G1 X125.770 Y52.022 E1.17463
G1 X126.757 Y52.187 E1.19242
G1 X127.597 Y52.518 E1.20845
G1 X128.838 Y53.663 E1.23847
G1 X128.867 Y53.719 E1.23959
G1 X128.867 Y53.719 E1.23959
G1 X129.554 Y55.078 E1.26666
G1 X129.787 Y56.610 E1.29420
G1 X129.720 Y57.199 E1.30472
G1 X129.720 Y57.199 E1.30472
G1 X129.707 Y57.320 E1.30688
G1 X130.706 Y57.232 E1.32471
G1 X130.799 Y56.035 E1.34605
G1 X130.799 Y56.035 E1.34605
G1 X130.891 Y53.514 E1.39088
G1 X130.999 Y53.036 E1.39958
G1 X131.346 Y52.615 E1.40928
G1 X131.773 Y52.374 E1.41799
G1 X132.204 Y52.304 E1.42574
G1 X132.481 Y52.322 E1.43069
G1 X132.977 Y52.510 E1.44010
G1 X133.421 Y53.030 E1.45226
G1 X133.533 Y53.544 E1.46160
G1 X133.533 Y53.544 E1.46160
G1 X133.571 Y53.717 E1.46475
G1 X133.548 Y54.076 E1.47114
G1 X133.548 Y54.076 E1.47114
G1 X133.393 Y56.913 E1.52164
G1 X135.237 Y57.396 E1.55551
G1 X135.752 Y57.906 E1.56840
G1 X136.174 Y57.906 E1.57589
G1 X135.670 Y59.262 E1.60158
G1 X135.206 Y59.685 E1.61275
G1 X134.645 Y59.824 E1.62301
G1 X132.707 Y59.904 E1.65749
G1 X131.227 Y59.888 E1.68379
G1 X130.451 Y59.939 E1.69761
G1 X130.451 Y59.943 E1.69769
G1 X129.495 Y60.016 E1.71472
G1 X129.294 Y60.217 E1.71977
G1 X128.904 Y59.546 E1.73356
G1 X128.904 Y59.546 E1.73356
G1 X128.696 Y59.190 E1.74089
G1 X127.737 Y59.775 E1.76084
G1 X126.220 Y59.983 E1.78806
G1 X125.681 Y59.960 E1.79765
G1 X125.681 Y60.039 E1.79906
G1 X124.404 Y59.547 E1.82337
G1 X123.131 Y58.426 E1.85350
G1 X122.978 Y58.145 E1.85920
G1 X121.572 Y59.582 E1.89491
G1 X121.083 Y59.836 E1.90471
G1 X121.083 Y59.836 E1.90471
G1 X120.667 Y60.052 E1.91304
G1 X119.708 Y60.214 E1.93033
G1 X119.077 Y60.195 E1.94155
G1 X118.488 Y60.108 E1.95212
G1 X118.122 Y60.014 E1.95884
G1 X118.122 Y60.014 E1.95884
G1 X117.900 Y59.957 E1.96291
G1 X117.399 Y59.582 E1.97403
G1 X117.357 Y59.482 E1.97596
G1 X117.357 Y59.482 E1.97596
G1 X117.189 Y59.084 E1.98364
G1 X117.153 Y58.665 E1.99112
G1 X117.176 Y53.366 E2.08529
G1 X117.327 Y52.853 E2.09479
G1 X117.784 Y53.032 F9000.000
G1 X118.105 Y52.693 F1500.000 E2.10309
G1 X118.522 Y52.563 E2.11085
G1 X119.796 Y52.643 E2.13353
G1 X121.015 Y52.943 E2.15584
G1 X121.489 Y53.181 E2.16527
G1 X121.919 Y53.492 E2.17470
G1 X122.387 Y54.021 E2.18724
G1 X122.507 Y54.426 E2.19475
G1 X122.676 Y54.459 E2.19782
G1 X122.929 Y54.143 E2.20501
G1 X122.929 Y54.143 E2.20501
G1 X123.593 Y53.314 E2.22390
G1 X124.646 Y52.739 E2.24522
G1 X125.625 Y52.592 E2.26281
G1 X125.625 Y52.557 E2.26343
G1 X125.814 Y52.565 E2.26678
G1 X125.814 Y52.565 E2.26678
G1 X126.133 Y52.579 E2.27247
G1 X126.259 Y52.600 E2.27473
G1 X126.259 Y52.600 E2.27473
G1 X126.626 Y52.661 E2.28134
G1 X127.332 Y52.939 E2.29483
G1 X128.442 Y53.963 E2.32166
G1 X129.082 Y55.229 E2.34688
G1 X129.294 Y56.620 E2.37187
G1 X129.145 Y57.931 E2.39532
G1 X129.281 Y58.025 E2.39827
G1 X129.707 Y57.811 E2.40674
G1 X130.347 Y57.755 E2.41816
G1 X130.347 Y57.755 E2.41816
G1 X130.477 Y57.743 E2.42048
G1 X131.165 Y57.729 E2.43271
G1 X131.380 Y53.939 E2.50017
G1 X131.380 Y53.568 E2.50676
G1 X131.451 Y53.258 E2.51242
G1 X131.666 Y52.996 E2.51844
G1 X131.938 Y52.843 E2.52399
G1 X132.227 Y52.796 E2.52920
G1 X132.376 Y52.805 E2.53185
G1 X132.686 Y52.923 E2.53774
G1 X132.969 Y53.255 E2.54549
G1 X133.047 Y53.610 E2.55194
G1 X133.047 Y53.610 E2.55194
G1 X133.078 Y53.754 E2.55457
G1 X132.850 Y57.806 E2.62670
G1 X134.351 Y57.734 E2.65341
G1 X134.351 Y57.670 E2.65455
G1 X134.986 Y57.836 E2.66621
G1 X135.277 Y58.124 E2.67349
G1 X135.350 Y58.396 E2.67848
G1 X135.470 Y58.396 E2.68062
G1 X135.368 Y58.671 E2.68583
G1 X135.368 Y58.671 E2.68583
G1 X135.253 Y58.980 E2.69170
G1 X134.968 Y59.240 E2.69855
G1 X134.578 Y59.337 E2.70568
G1 X132.699 Y59.415 E2.73911
G1 X131.221 Y59.399 E2.76539
G1 X131.122 Y59.403 E2.76713
G1 X131.122 Y59.393 E2.76730
G1 X130.274 Y59.466 E2.78243
G1 X130.274 Y59.466 E2.78243
G1 X130.206 Y59.471 E2.78366
G1 X130.206 Y59.471 E2.78366
G1 X129.962 Y59.490 E2.78800
G1 X129.962 Y59.490 E2.78800
G1 X129.916 Y59.493 E2.78882
G1 X129.402 Y59.417 E2.79805
G1 X129.397 Y59.422 E2.79817
G1 X129.276 Y59.214 E2.80243
G1 X129.276 Y59.214 E2.80243
G1 X129.118 Y58.943 E2.80802
G1 X129.026 Y58.415 E2.81754
G1 X128.772 Y58.375 E2.82211
G1 X128.620 Y58.663 E2.82789
G1 X127.570 Y59.304 E2.84976
G1 X126.197 Y59.493 E2.87438
G1 X125.870 Y59.478 E2.88020
G1 X125.374 Y59.396 E2.88914
G1 X125.192 Y59.326 E2.89261
G1 X125.192 Y59.326 E2.89261
G1 X124.661 Y59.122 E2.90270
G1 X123.519 Y58.116 E2.92974
G1 X122.829 Y56.851 E2.95536
G1 X122.618 Y55.583 E2.97819
G1 X122.442 Y55.530 E2.98147
G1 X121.747 Y56.274 E2.99956
G1 X122.004 Y56.637 E3.00747
G1 X122.162 Y57.083 E3.01587
G1 X122.206 Y57.565 E3.02447
G1 X121.951 Y58.495 E3.04161
G1 X121.758 Y58.693 E3.04653
G1 X121.758 Y58.693 E3.04653
G1 X121.277 Y59.183 E3.05873
G1 X120.594 Y59.539 E3.07242
G1 X120.594 Y59.539 E3.07242
G1 X120.510 Y59.582 E3.07410
G1 X119.674 Y59.724 E3.08916
G1 X119.120 Y59.707 E3.09901
G1 X118.585 Y59.628 E3.10863
G1 X118.116 Y59.508 E3.11723
G1 X117.798 Y59.270 E3.12428
G1 X117.681 Y58.993 E3.12962
G1 X117.681 Y58.993 E3.12962
G1 X117.670 Y58.966 E3.13015
G1 X117.643 Y58.646 E3.13585
G1 X117.669 Y57.734 E3.15206
G1 X117.665 Y57.734 E3.15212
G1 X117.665 Y53.436 E3.22850
G1 X117.763 Y53.104 E3.23465
G1 F1800.000 E2.23465
G92 E0
G1 X118.784 Y64.763 F9000.000
G1 F1800.000 E1.00000
G1 X119.460 Y64.945 F1500.000 E1.01245
G1 X119.928 Y65.431 E1.02444
G1 X120.144 Y66.276 E1.03994
G1 X121.559 Y65.204 E1.07150
G1 X121.559 Y65.200 E1.07155
G1 X121.950 Y64.938 E1.07992
G1 X121.950 Y64.703 E1.08409
G1 X122.461 Y64.844 E1.09351
G1 X122.461 Y64.844 E1.09351
G1 X123.154 Y65.035 E1.10629
G1 X123.662 Y64.711 E1.11699
G1 X123.850 Y64.680 E1.12037
G1 X124.254 Y64.458 E1.12858
G1 X124.632 Y64.698 E1.13653
G1 X124.632 Y64.698 E1.13653
G1 X125.102 Y64.996 E1.14642
G1 X125.437 Y65.623 E1.15905
G1 X125.543 Y66.548 E1.17560
G1 X125.536 Y67.366 E1.19014
G1 X125.728 Y67.445 E1.19384
G1 X127.817 Y65.294 E1.24712
G1 X128.266 Y64.962 E1.25705
G1 X128.860 Y64.784 E1.26807
G1 X129.101 Y64.794 E1.27235
G1 X129.634 Y64.924 E1.28211
G1 X130.103 Y65.346 E1.29332
G1 X130.264 Y65.059 E1.29918
G1 X131.474 Y64.620 E1.32205
G1 X132.023 Y64.587 E1.33182
G1 X132.023 Y64.587 E1.33182
G1 X132.517 Y64.557 E1.34063
G1 X133.427 Y64.569 E1.35680
G1 X134.360 Y64.643 E1.37343
G1 X134.512 Y64.678 E1.37620
G1 X135.003 Y64.890 E1.38571
G1 X135.373 Y65.337 E1.39601
G1 X135.456 Y65.742 E1.40337
G1 X135.770 Y65.745 E1.40894
G1 X135.849 Y65.384 E1.41551
G1 X136.185 Y64.956 E1.42518
G1 X136.615 Y64.706 E1.43401
G1 X137.056 Y64.629 E1.44197
G1 X137.347 Y64.652 E1.44716
G1 X137.850 Y64.855 E1.45679
G1 X138.267 Y65.291 E1.46752
G1 X139.472 Y67.584 E1.51355
G1 X140.887 Y70.730 E1.57486
G1 X140.925 Y70.857 E1.57722
G1 X140.925 Y70.857 E1.57722
G1 X141.053 Y71.281 E1.58509
G1 X140.934 Y71.856 E1.59553
G1 X140.610 Y72.281 E1.60503
G1 X140.191 Y72.542 E1.61379
G1 X139.423 Y72.678 E1.62765
G1 X139.423 Y72.594 E1.62915
G1 X138.908 Y72.380 E1.63906
G1 X138.537 Y71.872 E1.65024
G1 X138.425 Y71.613 E1.65526
G1 X138.427 Y71.613 E1.65529
G1 X137.885 Y70.419 E1.67857
G1 X137.732 Y70.411 E1.68130
G1 X137.565 Y70.684 E1.68698
G1 X137.565 Y70.684 E1.68698
G1 X136.695 Y72.082 E1.71624
G1 X136.274 Y72.461 E1.72632
G1 X135.681 Y72.628 E1.73726
G1 X135.681 Y72.628 E1.73726
G1 X135.077 Y72.798 E1.74841
G1 X135.077 Y72.677 E1.75058
G1 X133.901 Y72.950 E1.77204
G1 X133.894 Y72.951 E1.77216
G1 X133.894 Y72.951 E1.77216
G1 X132.979 Y73.002 E1.78845
G1 X132.051 Y72.960 E1.80496
G1 X131.529 Y72.871 E1.81436
G1 X131.529 Y73.261 E1.82130
G1 X130.150 Y72.695 E1.84778
G1 X129.838 Y72.303 E1.85669
G1 X129.590 Y72.558 E1.86302
G1 X129.255 Y72.649 E1.86920
G1 X129.255 Y72.649 E1.86920
G1 X129.058 Y72.703 E1.87282
G1 X128.585 Y72.654 E1.88127
G1 X128.118 Y72.443 E1.89038
G1 X127.756 Y71.993 E1.90064
G1 X127.678 Y71.573 E1.90823
G1 X127.630 Y71.573 E1.90908
G1 X127.729 Y69.414 E1.94750
G1 X127.531 Y69.335 E1.95130
G1 X127.157 Y69.737 E1.96105
G1 X125.359 Y72.132 E2.01427
G1 X124.880 Y72.595 E2.02612
G1 X123.691 Y72.991 E2.04838
G1 X123.691 Y72.644 E2.05454
G1 X123.476 Y72.582 E2.05852
G1 X122.958 Y72.058 E2.07162
G1 X122.735 Y71.252 E2.08648
G1 X121.322 Y72.258 E2.11730
G1 X120.696 Y72.495 E2.12920
G1 X120.131 Y72.602 E2.13940
G1 X120.131 Y72.602 E2.13940
G1 X120.092 Y72.610 E2.14013
G1 X118.941 Y72.697 E2.16063
G1 X118.292 Y72.591 E2.17231
G1 X117.798 Y72.170 E2.18385
G1 X117.553 Y71.703 E2.19322
G1 X117.484 Y71.269 E2.20104
G1 X117.484 Y70.393 E2.21659
G1 X117.084 Y70.355 E2.22374
G1 X116.996 Y70.811 E2.23199
G1 X116.996 Y70.811 E2.23199
G1 X116.882 Y71.395 E2.24256
G1 X116.638 Y71.928 E2.25299
G1 X116.194 Y72.329 E2.26362
G1 X115.553 Y72.482 E2.27533
G1 X115.188 Y72.397 E2.28200
G1 X114.877 Y72.173 E2.28880
G1 X114.583 Y71.853 E2.29653
G1 X114.580 Y71.849 E2.29662
G1 X114.580 Y71.849 E2.29662
G1 X114.259 Y71.421 E2.30613
G1 X112.544 Y68.658 E2.36391
G1 X112.472 Y68.628 E2.36531
G1 X112.099 Y68.324 E2.37387
G1 X111.747 Y68.700 E2.38302
G1 X111.747 Y68.700 E2.38302
G1 X111.537 Y68.925 E2.38850
G1 X111.779 Y69.612 E2.40144
G1 X111.837 Y70.243 E2.41270
G1 X111.526 Y71.381 E2.43367
G1 X111.074 Y71.842 E2.44515
G1 X111.074 Y71.842 E2.44515
G1 X110.709 Y72.216 E2.45444
G1 X109.803 Y72.686 E2.47256
G1 X108.844 Y72.849 E2.48985
G1 X108.213 Y72.829 E2.50108
G1 X107.624 Y72.743 E2.51165
G1 X107.036 Y72.592 E2.52243
G1 X106.535 Y72.217 E2.53356
G1 X106.325 Y71.719 E2.54316
G1 X106.289 Y71.299 E2.55065
G1 X106.312 Y66.000 E2.64482
G1 X106.457 Y65.508 E2.65393
G1 X106.457 Y65.508 E2.65393
G1 X106.484 Y65.416 E2.65564
G1 X106.828 Y65.052 E2.66455
G1 X106.828 Y65.052 E2.66455
G1 X106.974 Y64.898 E2.66832
G1 X107.599 Y64.704 E2.67995
G1 X109.006 Y64.792 E2.70501
G1 X110.321 Y65.116 E2.72907
G1 X110.880 Y65.396 E2.74018
G1 X111.446 Y65.805 E2.75259
G1 X111.539 Y65.439 E2.75930
G1 X112.040 Y64.951 E2.77173
G1 X112.656 Y64.782 E2.78308
G1 X112.971 Y64.801 E2.78869
G1 X113.469 Y64.989 E2.79815
G1 X113.871 Y65.445 E2.80895
G1 X114.389 Y66.613 E2.83165
G1 X115.220 Y66.666 E2.84645
G1 X115.291 Y66.482 E2.84996
G1 X115.291 Y66.482 E2.84996
G1 X115.466 Y66.024 E2.85867
G1 X115.698 Y65.551 E2.86803
G1 X116.175 Y64.971 E2.88138
G1 X116.689 Y64.784 E2.89109
G1 X117.027 Y64.795 E2.89711
G1 X117.540 Y64.973 E2.90676
G1 X117.807 Y65.240 E2.91347
G1 X118.130 Y64.929 E2.92144
G1 X118.711 Y64.781 E2.93210
G1 F1800.000 E1.93210
G92 E0
G1 X111.523 Y66.655 F9000.000
G1 F1800.000 E1.00000
G1 X111.732 Y67.361 F1500.000 E1.01309
G1 X111.619 Y67.934 E1.02345
