; generated by Slic3r 0.9.3-dev on 2012-09-26 at 10:56:06

; layer_height = 0.4
; perimeters = 2
; solid_layers = 3
; fill_density = 1.0
; perimeter_speed = 30
; infill_speed = 40
; travel_speed = 70
; scale = 1
; nozzle_diameter = 0.5
; filament_diameter = 3
; extrusion_multiplier = 1
; single wall width = 0.53mm
; first layer single wall width = 0.80mm

M104 S200 ; set temperature
M106
M104 S230
G28
M140 S60
G1 X205 Y105 F4000
M109 S230
G92 E0
G1 E5 F50
G1 X205 Y90 F2000
G90 ; use absolute coordinates
G21 ; set units to millimeters
G92 E0
M82 ; use absolute distances for extrusion
G1 F1800.000 E-1.00000
G92 E0
G1 Z0.400 F4200.000
G1 X80.240 Y94.712
G1 F1800.000 E1.00000
G1 X80.630 Y94.312 F900.000 E1.02326
G1 X81.280 Y93.782 E1.05817
G1 X82.700 Y92.752 E1.13119
G1 X83.170 Y92.472 E1.15397
G1 X85.010 Y91.612 E1.23851
G1 X85.570 Y91.392 E1.26356
G1 X86.140 Y91.222 E1.28832
G1 X88.150 Y90.802 E1.37380
G1 X88.700 Y90.732 E1.39688
G1 X89.250 Y90.712 E1.41979
G1 X91.290 Y90.732 E1.50471
G1 X91.840 Y90.802 E1.52779
G1 X93.850 Y91.222 E1.61327
G1 X94.420 Y91.392 E1.63803
G1 X96.330 Y92.222 E1.72472
G1 X96.820 Y92.472 E1.74762
G1 X97.290 Y92.752 E1.77040
G1 X98.930 Y93.952 E1.85499
G1 X99.360 Y94.312 E1.87833
G1 X100.940 Y96.032 E1.97556
G1 X101.300 Y96.502 E2.00020
G1 X102.350 Y98.282 E2.08623
G1 X102.610 Y98.782 E2.10969
G1 X102.820 Y99.292 E2.13265
G1 X103.460 Y101.242 E2.21808
G1 X103.590 Y101.802 E2.24201
G1 X103.640 Y102.092 E2.25426
G1 X103.860 Y104.532 E2.35625
G1 X103.860 Y125.452 E3.22710
G1 X103.640 Y127.902 E3.32949
G1 X103.530 Y128.472 E3.35366
G1 X103.460 Y128.752 E3.36567
G1 X102.720 Y130.972 E3.46309
G1 X102.480 Y131.482 E3.48655
G1 X101.300 Y133.492 E3.58357
G1 X100.770 Y134.152 E3.61881
G1 X99.370 Y135.672 E3.70483
G1 X98.940 Y136.042 E3.72845
G1 X97.280 Y137.242 E3.81371
G1 X96.800 Y137.532 E3.83706
G1 X94.680 Y138.492 E3.93393
G1 X94.150 Y138.682 E3.95737
G1 X91.870 Y139.182 E4.05454
G1 X91.310 Y139.252 E4.07803
G1 X90.740 Y139.282 E4.10179
G1 X88.960 Y139.272 E4.17589
G1 X88.400 Y139.222 E4.19929
G1 X85.840 Y138.682 E4.30821
G1 X85.310 Y138.492 E4.33164
G1 X83.190 Y137.532 E4.42852
G1 X82.710 Y137.242 E4.45187
G1 X81.050 Y136.042 E4.53713
G1 X80.620 Y135.672 E4.56075
G1 X79.040 Y133.942 E4.65828
G1 X78.690 Y133.492 E4.68201
G1 X77.510 Y131.482 E4.77903
G1 X77.270 Y130.972 E4.80249
G1 X76.530 Y128.752 E4.89991
G1 X76.400 Y128.192 E4.92384
G1 X76.350 Y127.902 E4.93609
G1 X76.130 Y125.452 E5.03849
G1 X76.130 Y104.532 E5.90933
G1 X76.350 Y102.092 E6.01132
G1 X76.460 Y101.522 E6.03548
G1 X76.530 Y101.242 E6.04750
G1 X77.270 Y99.032 E6.14451
G1 X77.380 Y98.782 E6.15588
G1 X78.530 Y96.742 E6.25337
G1 X78.690 Y96.502 E6.26538
G1 X79.050 Y96.032 E6.29002
G1 X80.159 Y94.801 E6.35901
G1 F1800.000 E5.35901
G92 E0
G1 X86.857 Y101.398 F4200.000
G1 F1800.000 E1.00000
G1 X93.143 Y101.398 F900.000 E1.26165
G1 X93.143 Y107.684 E1.52331
G1 X86.857 Y107.684 E1.78496
G1 X86.857 Y101.518 E2.04162
G1 X87.625 Y102.166 F4200.000
G1 X92.375 Y102.166 F900.000 E2.23936
G1 X92.375 Y106.916 E2.43709
G1 X87.625 Y106.916 E2.63482
G1 X87.625 Y102.286 E2.82755
G1 F1800.000 E1.82755
G92 E0
G1 X85.767 Y99.840 F4200.000
G1 F1800.000 E1.00000
G1 X86.837 Y99.063 F900.000 E1.05505
G1 X88.045 Y98.525 E1.11010
G1 X89.339 Y98.250 E1.16515
G1 X90.661 Y98.250 E1.22020
G1 X91.955 Y98.525 E1.27525
G1 X93.163 Y99.063 E1.33030
G1 X94.233 Y99.840 E1.38535
G1 X95.118 Y100.823 E1.44040
G1 X95.779 Y101.968 E1.49545
G1 X96.188 Y103.226 E1.55050
G1 X96.326 Y104.541 E1.60555
G1 X96.188 Y105.856 E1.66060
G1 X95.779 Y107.114 E1.71565
G1 X95.118 Y108.259 E1.77070
G1 X94.233 Y109.242 E1.82575
G1 X93.163 Y110.019 E1.88080
G1 X91.955 Y110.557 E1.93585
G1 X90.661 Y110.832 E1.99090
G1 X89.339 Y110.832 E2.04595
G1 X88.045 Y110.557 E2.10100
G1 X86.837 Y110.019 E2.15605
G1 X85.767 Y109.242 E2.21110
G1 X84.882 Y108.259 E2.26615
G1 X84.221 Y107.114 E2.32120
G1 X83.812 Y105.856 E2.37625
G1 X83.674 Y104.541 E2.43130
G1 X83.812 Y103.226 E2.48635
G1 X84.221 Y101.968 E2.54140
G1 X84.882 Y100.823 E2.59645
G1 X85.687 Y99.929 E2.64651
G1 X85.251 Y99.266 F4200.000
G1 X86.451 Y98.394 F900.000 E2.70828
G1 X87.807 Y97.791 E2.77004
G1 X89.258 Y97.482 E2.83181
G1 X90.742 Y97.482 E2.89358
G1 X92.193 Y97.791 E2.95535
G1 X93.549 Y98.394 E3.01712
G1 X94.749 Y99.266 E3.07889
G1 X95.742 Y100.369 E3.14066
G1 X96.484 Y101.654 E3.20243
G1 X96.943 Y103.065 E3.26419
G1 X97.098 Y104.541 E3.32596
G1 X96.943 Y106.017 E3.38773
G1 X96.484 Y107.428 E3.44950
G1 X95.742 Y108.713 E3.51127
G1 X94.749 Y109.816 E3.57304
G1 X93.549 Y110.688 E3.63481
G1 X92.193 Y111.291 E3.69658
G1 X90.742 Y111.600 E3.75834
G1 X89.258 Y111.600 E3.82011
G1 X87.807 Y111.291 E3.88188
G1 X86.451 Y110.688 E3.94365
G1 X85.251 Y109.816 E4.00542
G1 X84.258 Y108.713 E4.06719
G1 X83.516 Y107.428 E4.12896
G1 X83.057 Y106.017 E4.19073
G1 X82.902 Y104.541 E4.25249
G1 X83.057 Y103.065 E4.31426
G1 X83.516 Y101.654 E4.37603
G1 X84.258 Y100.369 E4.43780
G1 X85.170 Y99.356 E4.49457
G1 F1800.000 E3.49457
G92 E0
G1 X86.717 Y109.045 F4200.000
G1 F1800.000 E1.00000
G1 X86.264 Y108.592 F1050.000 E1.02950
G1 X87.108 Y108.225 E1.07189
G1 X89.047 Y110.163 E1.19807
G1 X90.385 Y110.291 E1.25998
G1 X88.320 Y108.225 E1.39446
G1 X89.531 Y108.225 E1.45021
G1 X91.458 Y110.152 E1.57568
G1 X92.374 Y109.857 E1.61999
G1 X90.742 Y108.225 E1.72625
G1 X91.953 Y108.225 E1.78201
G1 X93.178 Y109.450 E1.86176
G1 X93.617 Y108.678 E1.90265
G1 X93.164 Y108.225 E1.93213
G1 F1800.000 E0.93213
G92 E0
G1 X85.894 Y108.310 F4200.000
G1 F1800.000 E1.00000
G1 X85.441 Y107.857 F1050.000 E1.03003
G1 X86.316 Y107.500 E1.07433
G1 X84.368 Y105.552 E1.20348
G1 X84.234 Y104.185 E1.26786
G1 X86.316 Y106.267 E1.40592
G1 X86.316 Y105.035 E1.46369
G1 X84.366 Y103.085 E1.59298
G1 X84.668 Y102.155 E1.63883
G1 X86.316 Y103.803 E1.74809
G1 X86.316 Y102.570 E1.80586
G1 X85.103 Y101.358 E1.88626
G1 X85.863 Y100.885 E1.92821
G1 X86.316 Y101.338 E1.95822
G1 X86.836 Y100.857 F4200.000
G1 X86.383 Y100.404 F1050.000 E1.98771
G1 X86.822 Y99.632 E2.02860
G1 X88.047 Y100.857 E2.10835
G1 X89.258 Y100.857 E2.16411
G1 X87.626 Y99.225 E2.27036
G1 X88.542 Y98.930 E2.31467
G1 X90.469 Y100.857 E2.44014
G1 X91.680 Y100.857 E2.49590
G1 X89.615 Y98.791 E2.63037
G1 X90.953 Y98.919 E2.69227
G1 X92.892 Y100.857 E2.81846
G1 X93.283 Y100.037 E2.86028
G1 X93.736 Y100.490 E2.88978
G1 X94.559 Y101.225 F4200.000
G1 X94.106 Y100.772 F1050.000 E2.91981
G1 X93.684 Y101.583 E2.96264
G1 X95.632 Y103.530 E3.09178
G1 X95.766 Y104.897 E3.15617
G1 X93.684 Y102.815 E3.29423
G1 X93.684 Y104.047 E3.35200
G1 X95.634 Y105.997 E3.48129
G1 X95.332 Y106.927 E3.52714
G1 X93.684 Y105.280 E3.63639
G1 X93.684 Y106.512 E3.69417
G1 X94.897 Y107.725 E3.77456
G1 X93.684 Y107.744 E3.83141
G1 X94.137 Y108.197 E3.86143
G1 F1800.000 E2.86143
G92 E0
G1 X93.143 Y128.602 F4200.000
G1 F1800.000 E1.00000
G1 X86.857 Y128.602 F900.000 E1.26165
G1 X86.857 Y122.316 E1.52331
G1 X93.143 Y122.316 E1.78496
G1 X93.143 Y128.482 E2.04162
G1 X92.375 Y127.834 F4200.000
G1 X87.625 Y127.834 F900.000 E2.23936
G1 X87.625 Y123.084 E2.43709
G1 X92.375 Y123.084 E2.63482
G1 X92.375 Y127.714 E2.82755
G1 F1800.000 E1.82755
G92 E0
G1 X94.233 Y130.160 F4200.000
G1 F1800.000 E1.00000
G1 X93.163 Y130.937 F900.000 E1.05505
G1 X91.955 Y131.475 E1.11010
G1 X90.661 Y131.750 E1.16515
G1 X89.339 Y131.750 E1.22020
G1 X88.045 Y131.475 E1.27525
G1 X86.837 Y130.937 E1.33030
G1 X85.767 Y130.160 E1.38535
G1 X84.882 Y129.177 E1.44040
G1 X84.221 Y128.032 E1.49545
G1 X83.812 Y126.774 E1.55050
G1 X83.674 Y125.459 E1.60555
G1 X83.812 Y124.144 E1.66060
G1 X84.221 Y122.886 E1.71565
G1 X84.882 Y121.741 E1.77070
G1 X85.767 Y120.758 E1.82575
G1 X86.837 Y119.981 E1.88080
G1 X88.045 Y119.443 E1.93585
G1 X89.339 Y119.168 E1.99090
G1 X90.661 Y119.168 E2.04595
G1 X91.955 Y119.443 E2.10100
G1 X93.163 Y119.981 E2.15605
G1 X94.233 Y120.758 E2.21110
G1 X95.118 Y121.741 E2.26615
G1 X95.779 Y122.886 E2.32120
G1 X96.188 Y124.144 E2.37625
G1 X96.326 Y125.459 E2.43130
G1 X96.188 Y126.774 E2.48635
G1 X95.779 Y128.032 E2.54140
G1 X95.118 Y129.177 E2.59645
G1 X94.313 Y130.071 E2.64651
G1 X94.749 Y130.734 F4200.000
G1 X93.549 Y131.606 F900.000 E2.70828
G1 X92.193 Y132.209 E2.77004
G1 X90.742 Y132.518 E2.83181
G1 X89.258 Y132.518 E2.89358
G1 X87.807 Y132.209 E2.95535
G1 X86.451 Y131.606 E3.01712
G1 X85.251 Y130.734 E3.07889
G1 X84.258 Y129.631 E3.14066
G1 X83.516 Y128.346 E3.20243
G1 X83.057 Y126.935 E3.26419
G1 X82.902 Y125.459 E3.32596
G1 X83.057 Y123.983 E3.38773
G1 X83.516 Y122.572 E3.44950
G1 X84.258 Y121.287 E3.51127
G1 X85.251 Y120.184 E3.57304
G1 X86.451 Y119.312 E3.63481
G1 X87.807 Y118.709 E3.69658
G1 X89.258 Y118.400 E3.75834
G1 X90.742 Y118.400 E3.82011
G1 X92.193 Y118.709 E3.88188
G1 X93.549 Y119.312 E3.94365
G1 X94.749 Y120.184 E4.00542
G1 X95.742 Y121.287 E4.06719
G1 X96.484 Y122.572 E4.12896
G1 X96.943 Y123.983 E4.19073
G1 X97.098 Y125.459 E4.25249
G1 X96.943 Y126.935 E4.31426
G1 X96.484 Y128.346 E4.37603
G1 X95.742 Y129.631 E4.43780
G1 X94.830 Y130.644 E4.49457
G1 F1800.000 E3.49457
G92 E0
G1 X93.164 Y129.143 F4200.000
G1 F1800.000 E1.00000
G1 X93.617 Y129.596 F1050.000 E1.02948
G1 X93.178 Y130.368 E1.07037
G1 X91.953 Y129.143 E1.15011
G1 X90.742 Y129.143 E1.20588
G1 X92.374 Y130.775 E1.31213
G1 X91.458 Y131.070 E1.35644
G1 X89.531 Y129.143 E1.48191
G1 X88.320 Y129.143 E1.53767
G1 X90.385 Y131.209 E1.67215
G1 X89.047 Y131.081 E1.73406
G1 X87.108 Y129.143 E1.86024
G1 X86.264 Y129.510 E1.90263
G1 X86.717 Y129.963 E1.93213
G1 X85.894 Y129.228 F4200.000
G1 X85.441 Y128.775 F1050.000 E1.96215
G1 X86.316 Y128.417 E2.00646
G1 X84.368 Y126.470 E2.13560
G1 X84.234 Y125.103 E2.19999
G1 X86.316 Y127.185 E2.33804
G1 X86.316 Y125.953 E2.39582
G1 X84.366 Y124.003 E2.52511
G1 X84.668 Y123.073 E2.57096
G1 X86.316 Y124.720 E2.68022
G1 X86.316 Y123.488 E2.73799
G1 X85.103 Y122.275 E2.81838
G1 X85.863 Y121.803 E2.86033
G1 X86.316 Y122.256 E2.89035
G1 X86.836 Y121.775 F4200.000
G1 X86.383 Y121.322 F1050.000 E2.91983
G1 X86.822 Y120.550 E2.96073
G1 X88.047 Y121.775 E3.04048
G1 X89.258 Y121.775 E3.09624
G1 X87.626 Y120.143 E3.20249
G1 X88.542 Y119.848 E3.24680
G1 X90.469 Y121.775 E3.37226
G1 X91.680 Y121.775 E3.42802
G1 X89.615 Y119.709 E3.56250
G1 X90.953 Y119.837 E3.62440
G1 X92.892 Y121.775 E3.75059
G1 X93.283 Y120.955 E3.79241
G1 X93.736 Y121.408 E3.82191
G1 X94.559 Y122.143 F4200.000
G1 X94.106 Y121.690 F1050.000 E3.85193
G1 X93.684 Y122.500 E3.89477
G1 X95.632 Y124.448 E4.02391
G1 X95.766 Y125.815 E4.08830
G1 X93.684 Y123.733 E4.22635
G1 X93.684 Y124.965 E4.28413
G1 X95.634 Y126.915 E4.41342
G1 X95.332 Y127.845 E4.45927
G1 X93.684 Y126.198 E4.56852
G1 X93.684 Y127.430 E4.62629
G1 X94.897 Y128.642 E4.70669
G1 X93.684 Y128.662 E4.76354
G1 X94.137 Y129.115 E4.79356
G1 F1800.000 E3.79356
G92 E0
G1 Z0.800 F4200.000
G1 X92.760 Y107.301
G1 F1800.000 E1.00000
G1 X87.240 Y107.301 F1800.000 E1.16231
G1 X87.240 Y101.781 E1.32461
G1 X92.760 Y101.781 E1.48692
G1 X92.760 Y107.222 E1.64691
G1 X92.237 Y106.779 F4200.000
G1 X87.763 Y106.779 F1800.000 E1.77850
G1 X87.763 Y102.304 E1.91009
G1 X92.237 Y102.304 E2.04168
G1 X92.237 Y106.700 E2.17095
G1 F1800.000 E1.17095
G92 E0
G1 X96.131 Y107.271 F4200.000
G1 F1800.000 E1.00000
G1 X95.429 Y108.486 F1800.000 E1.04125
G1 X94.490 Y109.528 E1.08251
G1 X93.355 Y110.353 E1.12376
G1 X92.074 Y110.923 E1.16502
G1 X91.654 Y111.013 E1.17764
G1 X91.654 Y111.013 E1.17764
G1 X90.701 Y111.215 E1.20627
G1 X89.299 Y111.215 E1.24753
G1 X87.926 Y110.923 E1.28878
G1 X86.645 Y110.353 E1.33003
G1 X85.510 Y109.528 E1.37129
G1 X84.571 Y108.486 E1.41254
G1 X83.869 Y107.271 E1.45380
G1 X83.436 Y105.936 E1.49505
G1 X83.289 Y104.541 E1.53631
G1 X83.436 Y103.146 E1.57756
G1 X83.869 Y101.812 E1.61881
G1 X84.571 Y100.597 E1.66007
G1 X85.510 Y99.554 E1.70132
G1 X86.645 Y98.729 E1.74258
G1 X87.926 Y98.159 E1.78383
G1 X89.299 Y97.867 E1.82509
G1 X90.701 Y97.867 E1.86634
G1 X92.074 Y98.159 E1.90759
G1 X93.355 Y98.729 E1.94885
G1 X94.490 Y99.554 E1.99010
G1 X95.429 Y100.597 E2.03136
G1 X96.131 Y101.812 E2.07261
G1 X96.564 Y103.146 E2.11387
G1 X96.711 Y104.541 E2.15512
G1 X96.564 Y105.936 E2.19637
G1 X96.155 Y107.196 E2.23531
G1 X96.610 Y107.484 F4200.000
G1 X95.854 Y108.794 F1800.000 E2.27980
G1 X94.842 Y109.919 E2.32428
G1 X93.618 Y110.808 E2.36876
G1 X92.369 Y111.364 E2.40896
G1 X92.369 Y111.395 E2.40987
G1 X90.756 Y111.737 E2.45835
G1 X89.244 Y111.737 E2.50284
G1 X87.764 Y111.423 E2.54732
G1 X86.382 Y110.808 E2.59180
G1 X85.158 Y109.919 E2.63629
G1 X84.146 Y108.794 E2.68077
G1 X83.390 Y107.484 E2.72525
G1 X82.922 Y106.046 E2.76973
G1 X82.764 Y104.541 E2.81422
G1 X82.922 Y103.037 E2.85870
G1 X83.390 Y101.598 E2.90318
G1 X84.146 Y100.288 E2.94767
G1 X85.158 Y99.164 E2.99215
G1 X86.382 Y98.274 E3.03663
G1 X87.764 Y97.659 E3.08111
G1 X89.244 Y97.345 E3.12560
G1 X90.756 Y97.345 E3.17008
G1 X92.236 Y97.659 E3.21456
G1 X93.618 Y98.274 E3.25905
G1 X94.842 Y99.164 E3.30353
G1 X95.854 Y100.288 E3.34801
G1 X96.610 Y101.598 E3.39249
G1 X97.078 Y103.037 E3.43698
G1 X97.236 Y104.541 E3.48146
G1 X97.078 Y106.046 E3.52594
G1 X96.635 Y107.409 E3.56811
G1 X95.891 Y106.626 F4200.000
G1 X92.091 Y110.427 F2100.000 E3.73013
G1 X91.029 Y110.729 E3.76340
G1 X96.213 Y105.545 E3.98439
G1 F1800.000 E2.98439
G92 E0
G1 X93.133 Y106.345 F4200.000
G1 F1800.000 E1.00000
G1 X96.215 Y103.263 F2100.000 E1.13139
G1 X96.055 Y102.664 E1.15009
G1 X93.133 Y105.585 E1.27464
G1 X93.133 Y104.826 E1.29753
G1 X95.869 Y102.090 E1.41415
G1 X95.625 Y101.575 E1.43134
G1 X93.134 Y104.066 E1.53756
G1 X93.134 Y103.307 E1.56045
G1 X95.347 Y101.093 E1.65482
G1 X95.045 Y100.636 E1.67134
G1 X93.134 Y102.547 E1.75280
G1 X93.134 Y101.788 E1.77569
G1 X94.685 Y100.237 E1.84181
G1 X94.324 Y99.836 E1.85805
G1 X92.753 Y101.407 E1.92502
G1 X91.994 Y101.407 E1.94791
G1 X93.893 Y99.509 E2.02885
G1 X93.453 Y99.189 E2.04524
G1 X91.234 Y101.407 E2.13981
G1 X90.475 Y101.408 E2.16271
G1 X92.968 Y98.914 E2.26900
G1 X92.443 Y98.680 E2.28634
G1 X89.715 Y101.408 E2.40262
G1 X88.956 Y101.408 E2.42551
G1 X91.890 Y98.474 E2.55060
G1 X91.263 Y98.341 E2.56990
G1 X88.196 Y101.408 E2.70066
G1 X87.436 Y101.407 E2.72358
G1 X90.603 Y98.240 E2.85858
G1 X89.843 Y98.240 E2.88147
G1 X86.676 Y101.407 E3.01648
G1 X86.866 Y101.217 F4200.000
G1 X83.697 Y104.386 F2100.000 E3.15157
G1 X83.712 Y105.131 E3.17403
G1 X86.866 Y101.977 E3.30850
G1 X86.867 Y102.737 E3.33141
G1 X83.785 Y105.819 E3.46280
G1 X83.945 Y106.419 E3.48150
G1 X86.867 Y103.497 E3.60605
G1 X86.867 Y104.256 E3.62895
G1 X84.131 Y106.992 E3.74556
G1 X84.375 Y107.507 E3.76275
G1 X86.866 Y105.016 E3.86897
G1 X86.866 Y105.775 E3.89187
G1 X84.653 Y107.989 E3.98623
G1 X84.955 Y108.446 E4.00275
G1 X86.866 Y106.535 E4.08421
G1 X86.866 Y107.295 E4.10711
G1 X85.315 Y108.845 E4.17322
G1 X85.676 Y109.246 E4.18946
G1 X87.247 Y107.675 E4.25642
G1 X88.006 Y107.675 E4.27932
G1 X86.107 Y109.574 E4.36026
G1 X86.547 Y109.893 E4.37665
G1 X88.766 Y107.675 E4.47122
G1 X89.525 Y107.675 E4.49412
G1 X87.032 Y110.168 E4.60042
G1 X87.557 Y110.402 E4.61776
G1 X90.285 Y107.675 E4.73403
G1 X91.044 Y107.674 E4.75693
G1 X88.110 Y110.609 E4.88202
G1 X88.736 Y110.742 E4.90132
G1 X91.804 Y107.674 E5.03208
G1 X92.564 Y107.675 E5.05500
G1 X89.397 Y110.842 E5.19000
G1 X90.157 Y110.842 E5.21289
G1 X93.324 Y107.675 E5.34789
G1 X93.134 Y107.105 E5.36599
G1 X96.288 Y103.951 E5.50046
G1 X96.303 Y104.696 E5.52292
G1 X93.134 Y107.865 E5.65801
G1 X94.289 Y108.988 F4200.000
G1 X93.990 Y109.287 F2100.000 E5.67074
G1 F1800.000 E4.67074
G92 E0
G1 X88.971 Y98.353 F4200.000
G1 F1800.000 E1.00000
G1 X83.787 Y103.538 F2100.000 E1.22100
G1 X84.109 Y102.456 E1.25501
G1 X87.909 Y98.655 E1.41704
G1 X86.010 Y99.795 E1.48382
G1 X85.711 Y100.094 E1.49654
G1 F1800.000 E0.49654
G92 E0
G1 X87.240 Y122.699 F4200.000
G1 F1800.000 E1.00000
G1 X92.760 Y122.699 F1800.000 E1.16231
G1 X92.760 Y128.219 E1.32461
G1 X87.240 Y128.219 E1.48692
G1 X87.240 Y122.778 E1.64691
G1 X87.763 Y123.221 F4200.000
G1 X92.237 Y123.221 F1800.000 E1.77850
G1 X92.237 Y127.696 E1.91009
G1 X87.763 Y127.696 E2.04168
G1 X87.763 Y123.300 E2.17095
G1 F1800.000 E1.17095
G92 E0
G1 X96.131 Y128.188 F4200.000
