; generated by Slic3r 0.9.3-dev on 2012-10-06 at 02:43:41

; layer_height = 0.25
; perimeters = 2
; solid_layers = 3
; fill_density = 1.0
; perimeter_speed = 50
; infill_speed = 90
; travel_speed = 150
; scale = 1
; nozzle_diameter = 0.4
; filament_diameter = 3
; extrusion_multiplier = 1.05
; single wall width = 0.53mm
; first layer single wall width = 0.50mm

M107
M104 S190 ; set temperature
G28 ; home all axes
M104 S190
G1 Z0 F100
M109 S190 ; wait for temperature to be reached
G90 ; use absolute coordinates
G21 ; set units to millimeters
G92 E0
M82 ; use absolute distances for extrusion
G1 F1800.000 E-1.00000
G92 E0
G1 Z0.250 F9000.000
G1 X89.960 Y79.482
G1 F1800.000 E1.00000
G1 X90.160 Y79.262 F1500.000 E1.00528
G1 X90.810 Y78.672 E1.02088
G1 X92.520 Y77.442 E1.05832
G1 X93.010 Y77.142 E1.06853
G1 X95.180 Y76.152 E1.11091
G1 X95.730 Y75.962 E1.12126
G1 X98.060 Y75.442 E1.16368
G1 X98.940 Y75.352 E1.17940
G1 X99.240 Y75.342 E1.18474
G1 X101.050 Y75.352 E1.21690
G1 X101.640 Y75.402 E1.22742
G1 X101.930 Y75.442 E1.23263
G1 X104.260 Y75.962 E1.27505
G1 X104.810 Y76.152 E1.28539
G1 X106.980 Y77.142 E1.32778
G1 X107.470 Y77.442 E1.33799
G1 X109.180 Y78.672 E1.37542
G1 X109.830 Y79.262 E1.39102
G1 X111.240 Y80.822 E1.42839
G1 X111.760 Y81.542 E1.44418
G1 X112.810 Y83.362 E1.48152
G1 X113.160 Y84.152 E1.49687
G1 X113.890 Y86.442 E1.53959
G1 X114.000 Y87.042 E1.55043
G1 X114.220 Y89.532 E1.59485
G1 X114.220 Y110.452 E1.96662
G1 X114.000 Y112.952 E2.01122
G1 X113.890 Y113.542 E2.02189
G1 X113.160 Y115.842 E2.06477
G1 X112.800 Y116.652 E2.08052
G1 X111.750 Y118.452 E2.11755
G1 X111.250 Y119.142 E2.13270
G1 X109.850 Y120.712 E2.17008
G1 X109.410 Y121.122 E2.18077
G1 X107.470 Y122.552 E2.22360
G1 X106.980 Y122.852 E2.23381
G1 X104.800 Y123.842 E2.27636
G1 X104.240 Y124.032 E2.28686
G1 X101.610 Y124.592 E2.33465
G1 X100.750 Y124.642 E2.34996
G1 X98.950 Y124.632 E2.38195
G1 X98.380 Y124.592 E2.39210
G1 X96.040 Y124.112 E2.43455
G1 X95.470 Y123.942 E2.44512
G1 X95.190 Y123.842 E2.45041
G1 X93.010 Y122.852 E2.49296
G1 X92.520 Y122.552 E2.50317
G1 X90.810 Y121.312 E2.54070
G1 X90.140 Y120.712 E2.55669
G1 X88.740 Y119.142 E2.59407
G1 X88.400 Y118.692 E2.60409
G1 X87.190 Y116.652 E2.64624
G1 X86.830 Y115.842 E2.66199
G1 X86.180 Y113.842 E2.69937
G1 X86.100 Y113.542 E2.70488
G1 X85.990 Y112.952 E2.71555
G1 X85.770 Y110.452 E2.76015
G1 X85.770 Y89.532 E3.13192
G1 X85.990 Y87.042 E3.17634
G1 X86.100 Y86.442 E3.18718
G1 X86.830 Y84.152 E3.22990
G1 X87.180 Y83.362 E3.24525
G1 X88.230 Y81.542 E3.28259
G1 X88.570 Y81.052 E3.29319
G1 X88.750 Y80.822 E3.29838
G1 X89.910 Y79.538 E3.32913
G1 X90.320 Y79.802 F9000.000
G1 X90.700 Y79.412 F1500.000 E3.33881
G1 X91.340 Y78.892 E3.35347
G1 X92.790 Y77.852 E3.38518
G1 X93.250 Y77.572 E3.39475
G1 X95.360 Y76.612 E3.43594
G1 X95.870 Y76.432 E3.44555
G1 X98.140 Y75.922 E3.48690
G1 X98.690 Y75.852 E3.49675
G1 X99.240 Y75.832 E3.50653
G1 X101.300 Y75.852 E3.54314
G1 X101.850 Y75.922 E3.55300
G1 X104.120 Y76.432 E3.59434
G1 X104.630 Y76.612 E3.60395
G1 X106.510 Y77.452 E3.64055
G1 X106.980 Y77.712 E3.65009
G1 X108.870 Y79.062 E3.69137
G1 X109.290 Y79.412 E3.70108
G1 X110.860 Y81.132 E3.74247
G1 X111.190 Y81.572 E3.75224
G1 X112.370 Y83.592 E3.79382
G1 X112.600 Y84.072 E3.80328
G1 X113.340 Y86.282 E3.84469
G1 X113.470 Y86.832 E3.85474
G1 X113.700 Y88.882 E3.89140
G1 X113.700 Y111.092 E4.28609
G1 X113.470 Y113.162 E4.32311
G1 X113.260 Y113.972 E4.33798
G1 X112.700 Y115.672 E4.36978
G1 X112.490 Y116.172 E4.37942
G1 X111.340 Y118.192 E4.42073
G1 X111.030 Y118.632 E4.43029
G1 X109.500 Y120.372 E4.47147
G1 X108.880 Y120.932 E4.48632
G1 X107.200 Y122.142 E4.52311
G1 X106.740 Y122.422 E4.53268
G1 X104.620 Y123.382 E4.57404
G1 X104.100 Y123.572 E4.58388
G1 X101.820 Y124.062 E4.62532
G1 X101.290 Y124.132 E4.63482
G1 X100.750 Y124.152 E4.64442
G1 X98.700 Y124.132 E4.68085
G1 X98.170 Y124.062 E4.69036
G1 X95.890 Y123.572 E4.73180
G1 X95.120 Y123.282 E4.74642
G1 X93.480 Y122.542 E4.77839
G1 X93.010 Y122.282 E4.78794
G1 X91.110 Y120.932 E4.82936
G1 X90.490 Y120.372 E4.84421
G1 X88.960 Y118.632 E4.88538
G1 X88.650 Y118.192 E4.89495
G1 X87.500 Y116.172 E4.93626
G1 X87.290 Y115.672 E4.94589
G1 X86.650 Y113.702 E4.98270
G1 X86.520 Y113.162 E4.99257
G1 X86.290 Y111.092 E5.02959
G1 X86.290 Y88.882 E5.42428
G1 X86.520 Y86.832 E5.46094
G1 X86.650 Y86.282 E5.47099
G1 X87.290 Y84.322 E5.50763
G1 X87.500 Y83.832 E5.51710
G1 X88.650 Y81.802 E5.55856
G1 X88.960 Y81.352 E5.56827
G1 X90.270 Y79.858 E5.60359
G1 F1800.000 E4.60359
G92 E0
G1 X97.561 Y87.102 F9000.000
G1 F1800.000 E1.00000
G1 X102.439 Y87.102 F1500.000 E1.08670
G1 X102.439 Y91.980 E1.17339
G1 X97.561 Y91.980 E1.26009
G1 X97.561 Y87.177 E1.34546
G1 X98.050 Y87.591 F9000.000
G1 X101.950 Y87.591 F1500.000 E1.41476
G1 X101.950 Y91.491 E1.48407
G1 X98.050 Y91.491 E1.55338
G1 X98.050 Y87.666 E1.62135
G1 F1800.000 E0.62135
G92 E0
G1 X95.479 Y84.520 F9000.000
G1 F1800.000 E1.00000
G1 X96.622 Y83.690 F1500.000 E1.02510
G1 X97.912 Y83.115 E1.05020
G1 X99.294 Y82.821 E1.07531
G1 X100.706 Y82.821 E1.10041
G1 X102.088 Y83.115 E1.12551
G1 X103.378 Y83.690 E1.15061
G1 X104.521 Y84.520 E1.17572
G1 X105.466 Y85.570 E1.20082
G1 X106.173 Y86.793 E1.22592
G1 X106.609 Y88.136 E1.25102
G1 X106.757 Y89.541 E1.27612
G1 X106.609 Y90.946 E1.30123
G1 X106.173 Y92.289 E1.32633
G1 X105.466 Y93.513 E1.35143
G1 X104.521 Y94.562 E1.37653
G1 X103.378 Y95.393 E1.40163
G1 X102.088 Y95.967 E1.42674
G1 X100.706 Y96.261 E1.45184
G1 X99.294 Y96.261 E1.47694
G1 X97.912 Y95.967 E1.50204
G1 X96.622 Y95.393 E1.52715
G1 X95.479 Y94.562 E1.55225
G1 X94.534 Y93.513 E1.57735
G1 X93.827 Y92.289 E1.60245
G1 X93.391 Y90.946 E1.62755
G1 X93.243 Y89.541 E1.65266
G1 X93.391 Y88.136 E1.67776
G1 X93.827 Y86.793 E1.70286
G1 X94.534 Y85.570 E1.72796
G1 X95.429 Y84.576 E1.75173
G1 X95.150 Y84.154 F9000.000
G1 X96.376 Y83.264 F1500.000 E1.77866
G1 X97.760 Y82.647 E1.80559
G1 X99.242 Y82.332 E1.83252
G1 X100.758 Y82.332 E1.85945
G1 X102.240 Y82.647 E1.88638
G1 X103.624 Y83.264 E1.91331
G1 X104.850 Y84.154 E1.94024
G1 X105.864 Y85.280 E1.96717
G1 X106.622 Y86.593 E1.99410
G1 X107.090 Y88.034 E2.02103
G1 X107.249 Y89.541 E2.04796
G1 X107.090 Y91.048 E2.07489
G1 X106.622 Y92.489 E2.10182
G1 X105.864 Y93.802 E2.12875
G1 X104.850 Y94.928 E2.15568
G1 X103.624 Y95.819 E2.18261
G1 X102.240 Y96.435 E2.20954
G1 X100.758 Y96.750 E2.23647
G1 X99.242 Y96.750 E2.26340
G1 X97.760 Y96.435 E2.29033
G1 X96.376 Y95.819 E2.31726
G1 X95.150 Y94.928 E2.34419
G1 X94.136 Y93.802 E2.37112
G1 X93.378 Y92.489 E2.39805
G1 X92.910 Y91.048 E2.42498
G1 X92.751 Y89.541 E2.45191
G1 X92.910 Y88.034 E2.47884
G1 X93.378 Y86.593 E2.50577
G1 X94.136 Y85.280 E2.53270
G1 X95.100 Y84.210 E2.55830
G1 F1800.000 E1.55830
G92 E0
G1 X97.567 Y86.754 F9000.000
G1 F1800.000 E1.00000
G1 X95.615 Y84.802 F2700.000 E1.05008
G1 X96.013 Y84.492 E1.05923
G1 X98.275 Y86.754 E1.11724
G1 X98.983 Y86.754 E1.13008
G1 X96.423 Y84.194 E1.19574
G1 X96.854 Y83.917 E1.20503
G1 X99.690 Y86.754 E1.27779
G1 X100.398 Y86.754 E1.29063
G1 X97.343 Y83.699 E1.36898
G1 X97.833 Y83.481 E1.37870
G1 X101.106 Y86.754 E1.46265
G1 X101.814 Y86.754 E1.47549
G1 X98.400 Y83.340 E1.56306
G1 X98.983 Y83.216 E1.57389
G1 X102.521 Y86.754 E1.66464
G1 X102.787 Y87.020 F9000.000
G1 X106.315 Y90.548 F2700.000 E1.75514
G1 X106.214 Y91.155 E1.76630
G1 X102.787 Y87.727 E1.85421
G1 X102.787 Y88.435 E1.86705
G1 X106.041 Y91.689 E1.95050
G1 X105.867 Y92.223 E1.96069
G1 X102.787 Y89.143 E2.03969
G1 X102.787 Y89.851 E2.05253
G1 X105.609 Y92.673 E2.12492
G1 X105.350 Y93.122 E2.13432
G1 X102.787 Y90.559 E2.20007
G1 X102.787 Y91.266 E2.21291
G1 X105.056 Y93.536 E2.27111
G1 X104.721 Y93.908 E2.28020
G1 X102.787 Y91.974 E2.32980
G1 X102.433 Y92.328 F9000.000
G1 X104.385 Y94.280 F2700.000 E2.37988
G1 X103.987 Y94.590 E2.38903
G1 X101.725 Y92.328 E2.44704
G1 X101.018 Y92.328 E2.45988
G1 X103.577 Y94.888 E2.52554
G1 X103.146 Y95.165 E2.53482
G1 X100.310 Y92.328 E2.60759
G1 X99.602 Y92.328 E2.62042
G1 X102.657 Y95.383 E2.69878
G1 X102.167 Y95.601 E2.70850
G1 X98.894 Y92.328 E2.79245
G1 X98.186 Y92.328 E2.80529
G1 X101.600 Y95.742 E2.89286
G1 X101.017 Y95.866 E2.90368
G1 X97.479 Y92.328 E2.99444
G1 X97.213 Y92.063 F9000.000
G1 X93.685 Y88.534 F2700.000 E3.08494
G1 X93.786 Y87.928 E3.09610
G1 X97.213 Y91.355 E3.18401
G1 X97.213 Y90.647 E3.19684
G1 X93.959 Y87.393 E3.28030
G1 X94.133 Y86.859 E3.29049
G1 X97.213 Y89.939 E3.36949
G1 X97.213 Y89.231 E3.38233
G1 X94.391 Y86.409 E3.45472
G1 X94.650 Y85.960 E3.46412
G1 X97.213 Y88.524 E3.52986
G1 X97.213 Y87.816 E3.54270
G1 X94.944 Y85.547 E3.60091
G1 X95.279 Y85.174 E3.61000
G1 X97.213 Y87.108 E3.65960
G1 F1800.000 E2.65960
G92 E0
G1 X93.617 Y89.175 F9000.000
G1 F1800.000 E1.00000
G1 X100.356 Y95.913 F2700.000 E1.17284
G1 X99.648 Y95.913 E1.18567
G1 X93.648 Y89.913 E1.33958
G1 X93.731 Y90.704 E1.35402
G1 X98.792 Y95.765 E1.48384
G1 X97.763 Y95.444 E1.50340
G1 X94.072 Y91.753 E1.59808
G1 F1800.000 E0.59808
G92 E0
G1 X95.665 Y94.054 F9000.000
G1 F1800.000 E1.00000
G1 X95.950 Y94.339 F2700.000 E1.00730
G1 F1800.000 E0.00730
G92 E0
G1 X99.644 Y83.169 F9000.000
G1 F1800.000 E1.00000
G1 X106.383 Y89.907 F2700.000 E1.17284
G1 X106.352 Y89.169 E1.18624
G1 X100.352 Y83.169 E1.34014
G1 X101.208 Y83.317 E1.35589
G1 X106.269 Y88.378 E1.48571
G1 X105.928 Y87.329 E1.50570
G1 X102.237 Y83.639 E1.60037
G1 X104.050 Y84.744 E1.63888
G1 X104.334 Y85.028 E1.64617
G1 F1800.000 E0.64617
G92 E0
G1 X102.439 Y108.020 F9000.000
G1 F1800.000 E1.00000
G1 X102.439 Y112.898 F1500.000 E1.08670
G1 X97.561 Y112.898 E1.17339
G1 X97.561 Y108.020 E1.26009
G1 X102.364 Y108.020 E1.34546
G1 X101.950 Y108.509 F9000.000
G1 X101.950 Y112.409 F1500.000 E1.41476
G1 X98.050 Y112.409 E1.48407
G1 X98.050 Y108.509 E1.55338
G1 X101.875 Y108.509 E1.62135
G1 F1800.000 E0.62135
G92 E0
G1 X104.521 Y105.438 F9000.000
G1 F1800.000 E1.00000
G1 X105.466 Y106.487 F1500.000 E1.02510
G1 X106.173 Y107.711 E1.05020
G1 X106.609 Y109.054 E1.07531
G1 X106.757 Y110.459 E1.10041
G1 X106.609 Y111.864 E1.12551
G1 X106.173 Y113.207 E1.15061
G1 X105.466 Y114.430 E1.17572
G1 X104.521 Y115.480 E1.20082
G1 X103.378 Y116.310 E1.22592
G1 X102.088 Y116.885 E1.25102
G1 X100.706 Y117.179 E1.27612
G1 X99.294 Y117.179 E1.30123
G1 X97.912 Y116.885 E1.32633
G1 X96.622 Y116.310 E1.35143
G1 X95.479 Y115.480 E1.37653
G1 X94.534 Y114.430 E1.40163
G1 X93.827 Y113.207 E1.42674
G1 X93.391 Y111.864 E1.45184
G1 X93.243 Y110.459 E1.47694
G1 X93.391 Y109.054 E1.50204
G1 X93.827 Y107.711 E1.52715
G1 X94.534 Y106.487 E1.55225
G1 X95.479 Y105.438 E1.57735
G1 X96.622 Y104.607 E1.60245
G1 X97.912 Y104.033 E1.62755
G1 X99.294 Y103.739 E1.65266
G1 X100.706 Y103.739 E1.67776
G1 X102.088 Y104.033 E1.70286
G1 X103.378 Y104.607 E1.72796
G1 X104.460 Y105.394 E1.75173
G1 X104.850 Y105.072 F9000.000
G1 X105.864 Y106.198 F1500.000 E1.77866
G1 X106.622 Y107.511 E1.80559
G1 X107.090 Y108.952 E1.83252
G1 X107.249 Y110.459 E1.85945
G1 X107.090 Y111.966 E1.88638
G1 X106.622 Y113.407 E1.91331
G1 X105.864 Y114.720 E1.94024
G1 X104.850 Y115.846 E1.96717
G1 X103.624 Y116.736 E1.99410
G1 X102.240 Y117.353 E2.02103
G1 X100.758 Y117.668 E2.04796
G1 X99.242 Y117.668 E2.07489
G1 X97.760 Y117.353 E2.10182
G1 X96.376 Y116.736 E2.12875
G1 X95.150 Y115.846 E2.15568
G1 X94.136 Y114.720 E2.18261
G1 X93.378 Y113.407 E2.20954
G1 X92.910 Y111.966 E2.23647
G1 X92.751 Y110.459 E2.26340
G1 X92.910 Y108.952 E2.29033
G1 X93.378 Y107.511 E2.31726
G1 X94.136 Y106.198 E2.34419
G1 X95.150 Y105.072 E2.37112
G1 X96.376 Y104.181 E2.39805
G1 X97.760 Y103.565 E2.42498
G1 X99.242 Y103.250 E2.45191
G1 X100.758 Y103.250 E2.47884
G1 X102.240 Y103.565 E2.50577
G1 X103.624 Y104.181 E2.53270
G1 X104.790 Y105.028 E2.55830
G1 X104.334 Y105.946 F9000.000
G1 X104.050 Y105.662 F2700.000 E2.56559
G1 X102.237 Y104.556 E2.60410
G1 X105.928 Y108.247 E2.69877
G1 X106.269 Y109.296 E2.71876
G1 X101.208 Y104.235 E2.84858
G1 X100.352 Y104.087 E2.86432
G1 X106.352 Y110.087 E3.01823
G1 X106.383 Y110.825 E3.03163
G1 X99.644 Y104.087 E3.20447
G1 F1800.000 E2.20447
G92 E0
G1 X97.567 Y107.672 F9000.000
G1 F1800.000 E1.00000
G1 X95.615 Y105.720 F2700.000 E1.05008
G1 X96.013 Y105.410 E1.05923
G1 X98.275 Y107.672 E1.11724
G1 X98.983 Y107.672 E1.13008
G1 X96.423 Y105.112 E1.19574
G1 X96.854 Y104.835 E1.20503
G1 X99.690 Y107.672 E1.27779
G1 X100.398 Y107.672 E1.29063
G1 X97.343 Y104.617 E1.36898
G1 X97.833 Y104.399 E1.37870
G1 X101.106 Y107.672 E1.46265
G1 X101.814 Y107.672 E1.47549
G1 X98.400 Y104.258 E1.56306
G1 X98.983 Y104.134 E1.57389
G1 X102.521 Y107.672 E1.66464
G1 X102.787 Y107.937 F9000.000
G1 X106.315 Y111.466 F2700.000 E1.75514
G1 X106.214 Y112.072 E1.76630
G1 X102.787 Y108.645 E1.85421
G1 X102.787 Y109.353 E1.86705
G1 X106.041 Y112.607 E1.95050
G1 X105.867 Y113.141 E1.96069
G1 X102.787 Y110.061 E2.03969
G1 X102.787 Y110.769 E2.05253
G1 X105.609 Y113.591 E2.12492
G1 X105.350 Y114.040 E2.13432
G1 X102.787 Y111.476 E2.20007
G1 X102.787 Y112.184 E2.21291
G1 X105.056 Y114.453 E2.27111
G1 X104.721 Y114.826 E2.28020
G1 X102.787 Y112.892 E2.32980
G1 X102.433 Y113.246 F9000.000
G1 X104.385 Y115.198 F2700.000 E2.37988
G1 X103.987 Y115.508 E2.38903
G1 X101.725 Y113.246 E2.44704
G1 X101.018 Y113.246 E2.45988
G1 X103.577 Y115.806 E2.52554
G1 X103.146 Y116.083 E2.53482
G1 X100.310 Y113.246 E2.60759
G1 X99.602 Y113.246 E2.62042
G1 X102.657 Y116.301 E2.69878
G1 X102.167 Y116.519 E2.70850
G1 X98.894 Y113.246 E2.79245
G1 X98.186 Y113.246 E2.80529
G1 X101.600 Y116.660 E2.89286
G1 X101.017 Y116.784 E2.90368
G1 X97.479 Y113.246 E2.99444
G1 X97.213 Y112.980 F9000.000
G1 X93.685 Y109.452 F2700.000 E3.08494
G1 X93.786 Y108.845 E3.09610
G1 X97.213 Y112.273 E3.18401
G1 X97.213 Y111.565 E3.19684
G1 X93.959 Y108.311 E3.28030
G1 X94.133 Y107.777 E3.29049
G1 X97.213 Y110.857 E3.36949
G1 X97.213 Y110.149 E3.38233
G1 X94.391 Y107.327 E3.45472
G1 X94.650 Y106.878 E3.46412
G1 X97.213 Y109.441 E3.52986
G1 X97.213 Y108.734 E3.54270
G1 X94.944 Y106.465 E3.60091
G1 X95.279 Y106.092 E3.61000
G1 X97.213 Y108.026 E3.65960
G1 F1800.000 E2.65960
G92 E0
G1 X93.617 Y110.093 F9000.000
G1 F1800.000 E1.00000
G1 X100.356 Y116.831 F2700.000 E1.17284
G1 X99.648 Y116.831 E1.18567
G1 X93.648 Y110.831 E1.33958
G1 X93.731 Y111.622 E1.35402
G1 X98.792 Y116.683 E1.48384
G1 X97.763 Y116.361 E1.50340
G1 X94.072 Y112.671 E1.59808
G1 F1800.000 E0.59808
G92 E0
G1 X95.665 Y114.972 F9000.000
G1 F1800.000 E1.00000
G1 X95.950 Y115.256 F2700.000 E1.00730
M106 S255
G1 F1800.000 E0.00730
G92 E0
G1 Z0.500 F9000.000
G1 X97.518 Y92.023
G1 F1800.000 E1.00000
G1 X97.518 Y87.059 F1632.920 E1.09266
G1 X102.482 Y87.059 E1.18532
G1 X102.482 Y92.023 E1.27799
G1 X97.598 Y92.023 E1.36916
G1 X98.035 Y91.506 F9000.000
G1 X98.035 Y87.576 F1632.920 E1.44254
G1 X101.965 Y87.576 E1.51591
G1 X101.965 Y91.506 E1.58928
G1 X98.114 Y91.506 E1.66117
G1 F1800.000 E0.66117
G92 E0
G1 X95.508 Y94.530 F9000.000
G1 F1800.000 E1.00000
G1 X94.569 Y93.487 F1632.920 E1.02620
G1 X93.867 Y92.272 E1.05240
G1 X93.433 Y90.937 E1.07860
G1 X93.286 Y89.541 E1.10480
G1 X93.433 Y88.145 E1.13100
G1 X93.867 Y86.810 E1.15720
G1 X94.569 Y85.595 E1.18340
G1 X95.508 Y84.552 E1.20959
G1 X96.643 Y83.727 E1.23579
G1 X97.925 Y83.156 E1.26199
G1 X99.298 Y82.864 E1.28819
G1 X100.702 Y82.864 E1.31439
G1 X102.075 Y83.156 E1.34059
G1 X103.357 Y83.727 E1.36679
G1 X104.492 Y84.552 E1.39299
G1 X105.431 Y85.595 E1.41919
G1 X106.133 Y86.810 E1.44539
G1 X106.567 Y88.145 E1.47159
G1 X106.714 Y89.541 E1.49779
G1 X106.567 Y90.937 E1.52399
G1 X106.133 Y92.272 E1.55019
G1 X105.431 Y93.487 E1.57639
G1 X104.492 Y94.530 E1.60259
G1 X103.357 Y95.355 E1.62878
G1 X102.231 Y95.857 E1.65179
G1 X102.231 Y95.893 E1.65247
G1 X102.075 Y95.926 E1.65545
G1 X102.075 Y95.926 E1.65545
G1 X100.702 Y96.218 E1.68165
G1 X99.298 Y96.218 E1.70785
G1 X98.324 Y96.011 E1.72645
G1 X98.324 Y96.011 E1.72645
G1 X97.925 Y95.926 E1.73405
G1 X96.643 Y95.355 E1.76025
G1 X95.572 Y94.577 E1.78496
G1 X95.160 Y94.916 F9000.000
G1 X94.148 Y93.793 F1632.920 E1.81319
G1 X93.392 Y92.483 E1.84142
G1 X92.925 Y91.045 E1.86964
G1 X92.767 Y89.541 E1.89787
G1 X92.925 Y88.037 E1.92610
G1 X93.392 Y86.599 E1.95432
