; generated by Slic3r 0.9.3-dev on 2012-09-27 at 17:09:17

; layer_height = 0.25
; perimeters = 2
; solid_layers = 3
; fill_density = 0.2
; perimeter_speed = 30
; infill_speed = 100
; travel_speed = 200
; scale = 1
; nozzle_diameter = 0.4
; filament_diameter = 3
; extrusion_multiplier = 1.05
; single wall width = 0.53mm
; first layer single wall width = 0.50mm

M104 S190 ; set temperature
G28 ; home all axes
M104 S190
G1 Z0 F100
M109 S190 ; wait for temperature to be reached
G90 ; use absolute coordinates
G21 ; set units to millimeters
G92 E0
M82 ; use absolute distances for extrusion
G1 F1800.000 E-1.00000
G92 E0
G1 Z0.250 F12000.000
G1 X62.615 Y53.470
G1 F1800.000 E1.00000
G1 X63.205 Y52.900 F540.000 E1.01458
G1 X63.635 Y52.560 E1.02432
G1 X64.085 Y52.260 E1.03393
G1 X64.565 Y51.990 E1.04372
G1 X65.315 Y51.660 E1.05828
G1 X66.105 Y51.420 E1.07295
G1 X66.915 Y51.280 E1.08756
G1 X67.185 Y51.250 E1.09239
G1 X67.735 Y51.230 E1.10217
G1 X132.805 Y51.250 E2.25854
G1 X133.345 Y51.320 E2.26821
G1 X133.885 Y51.420 E2.27797
G1 X134.415 Y51.570 E2.28776
G1 X134.925 Y51.760 E2.29743
G1 X135.425 Y51.990 E2.30721
G1 X135.905 Y52.260 E2.31700
G1 X136.355 Y52.560 E2.32661
G1 X136.785 Y52.900 E2.33635
G1 X137.375 Y53.470 E2.35093
G1 X137.565 Y53.680 E2.35597
G1 X137.905 Y54.110 E2.36571
G1 X138.205 Y54.560 E2.37532
G1 X138.475 Y55.040 E2.38511
G1 X138.805 Y55.790 E2.39967
G1 X139.045 Y56.580 E2.41434
G1 X139.185 Y57.390 E2.42895
G1 X139.215 Y57.660 E2.43378
G1 X139.215 Y119.370 E3.53043
G1 X139.145 Y119.940 E3.54064
G1 X139.025 Y120.500 E3.55082
G1 X138.865 Y121.050 E3.56099
G1 X138.655 Y121.580 E3.57113
G1 X138.405 Y122.090 E3.58122
G1 X138.115 Y122.580 E3.59134
G1 X137.615 Y123.270 E3.60648
G1 X137.025 Y123.900 E3.62182
G1 X112.235 Y147.070 E4.22483
G1 X112.005 Y147.260 E4.23013
G1 X111.535 Y147.600 E4.24044
G1 X111.035 Y147.900 E4.25081
G1 X110.515 Y148.160 E4.26114
G1 X109.975 Y148.370 E4.27143
G1 X109.135 Y148.610 E4.28696
G1 X108.265 Y148.730 E4.30257
G1 X107.685 Y148.760 E4.31289
G1 X92.015 Y148.750 E4.59136
G1 X91.145 Y148.660 E4.60690
G1 X90.855 Y148.610 E4.61213
G1 X90.015 Y148.370 E4.62766
G1 X89.475 Y148.160 E4.63796
G1 X88.955 Y147.900 E4.64829
G1 X88.455 Y147.600 E4.65865
G1 X87.985 Y147.260 E4.66896
G1 X62.765 Y123.700 E5.28229
G1 X62.375 Y123.270 E5.29260
G1 X62.035 Y122.820 E5.30263
G1 X61.725 Y122.340 E5.31278
G1 X61.455 Y121.840 E5.32288
G1 X61.125 Y121.050 E5.33809
G1 X60.965 Y120.500 E5.34827
G1 X60.845 Y119.940 E5.35845
G1 X60.775 Y119.370 E5.36866
G1 X60.775 Y57.660 E6.46531
G1 X60.845 Y57.120 E6.47499
G1 X60.945 Y56.580 E6.48475
G1 X61.095 Y56.050 E6.49454
G1 X61.285 Y55.540 E6.50421
G1 X61.515 Y55.040 E6.51399
G1 X61.785 Y54.560 E6.52378
G1 X62.085 Y54.110 E6.53339
G1 X62.425 Y53.680 E6.54313
G1 X62.565 Y53.526 E6.54683
G1 X62.875 Y53.910 F12000.000
G1 X63.055 Y53.710 F540.000 E6.55161
G1 X63.235 Y53.530 E6.55614
G1 X63.835 Y53.020 E6.57013
G1 X64.045 Y52.870 E6.57472
G1 X64.715 Y52.460 E6.58868
G1 X65.435 Y52.140 E6.60268
G1 X65.685 Y52.050 E6.60740
G1 X66.435 Y51.850 E6.62119
G1 X66.695 Y51.800 E6.62590
G1 X67.215 Y51.740 E6.63520
G1 X67.735 Y51.720 E6.64445
G1 X132.775 Y51.740 E7.80028
G1 X133.295 Y51.800 E7.80958
G1 X134.065 Y51.980 E7.82364
G1 X134.305 Y52.050 E7.82808
G1 X134.795 Y52.240 E7.83742
G1 X135.275 Y52.460 E7.84680
G1 X135.945 Y52.870 E7.86076
G1 X136.155 Y53.020 E7.86535
G1 X136.755 Y53.530 E7.87934
G1 X136.935 Y53.710 E7.88387
G1 X137.445 Y54.310 E7.89786
G1 X137.595 Y54.520 E7.90245
G1 X138.005 Y55.190 E7.91641
G1 X138.325 Y55.910 E7.93041
G1 X138.415 Y56.160 E7.93513
G1 X138.615 Y56.910 E7.94892
G1 X138.665 Y57.170 E7.95363
G1 X138.725 Y57.690 E7.96293
G1 X138.725 Y119.360 E9.05888
G1 X138.695 Y119.640 E9.06388
G1 X138.595 Y120.190 E9.07382
G1 X138.455 Y120.730 E9.08373
G1 X138.155 Y121.510 E9.09858
G1 X137.755 Y122.250 E9.11353
G1 X137.265 Y122.930 E9.12842
G1 X136.685 Y123.540 E9.14338
G1 X111.915 Y146.700 E9.74602
G1 X111.495 Y147.040 E9.75562
G1 X111.035 Y147.340 E9.76538
G1 X110.565 Y147.600 E9.77492
G1 X110.065 Y147.820 E9.78463
G1 X109.295 Y148.070 E9.79902
G1 X108.765 Y148.180 E9.80864
G1 X108.225 Y148.250 E9.81831
G1 X107.685 Y148.270 E9.82792
G1 X91.765 Y148.250 E10.11083
G1 X91.225 Y148.180 E10.12051
G1 X90.695 Y148.070 E10.13013
G1 X89.925 Y147.820 E10.14452
G1 X89.425 Y147.600 E10.15422
G1 X88.955 Y147.340 E10.16377
G1 X88.495 Y147.040 E10.17353
G1 X87.875 Y146.520 E10.18791
G1 X63.105 Y123.340 E10.79078
G1 X62.725 Y122.930 E10.80072
G1 X62.235 Y122.250 E10.81561
G1 X61.835 Y121.510 E10.83056
G1 X61.535 Y120.730 E10.84541
G1 X61.395 Y120.190 E10.85533
G1 X61.295 Y119.640 E10.86526
G1 X61.265 Y119.360 E10.87027
G1 X61.265 Y57.690 E11.96621
G1 X61.325 Y57.170 E11.97551
G1 X61.505 Y56.400 E11.98957
G1 X61.575 Y56.160 E11.99401
G1 X61.765 Y55.670 E12.00335
G1 X61.985 Y55.190 E12.01273
G1 X62.395 Y54.520 E12.02669
G1 X62.545 Y54.310 E12.03128
G1 X62.826 Y53.967 E12.03916
G1 F1800.000 E11.03916
G92 E0
G1 X68.229 Y58.704 F12000.000
G1 F1800.000 E1.00000
G1 X71.446 Y58.704 F540.000 E1.05716
G1 X71.446 Y104.116 E1.86418
G1 X76.834 Y109.504 E1.99960
G1 X123.166 Y109.504 E2.82298
G1 X128.554 Y104.116 E2.95839
G1 X128.554 Y58.704 E3.76541
G1 X131.771 Y58.704 E3.82257
G1 X131.771 Y118.311 E4.88185
G1 X107.198 Y118.311 E5.31853
G1 X107.198 Y141.296 E5.72699
G1 X92.802 Y141.296 E5.98284
G1 X92.802 Y118.311 E6.39130
G1 X68.229 Y118.311 E6.82798
G1 X68.229 Y58.779 E7.88593
G1 X67.740 Y59.203 F12000.000
G1 X67.740 Y58.215 F540.000 E7.90349
G1 X71.935 Y58.215 E7.97804
G1 X71.935 Y103.914 E8.79015
G1 X77.036 Y109.015 E8.91836
G1 X122.964 Y109.015 E9.73454
G1 X128.065 Y103.914 E9.86275
G1 X128.065 Y58.215 E10.67487
G1 X132.260 Y58.215 E10.74942
G1 X132.260 Y118.800 E11.82608
G1 X107.688 Y118.800 E12.26276
G1 X107.688 Y141.785 E12.67123
G1 X92.313 Y141.785 E12.94446
G1 X92.313 Y118.800 E13.35293
G1 X67.740 Y118.800 E13.78961
G1 X67.740 Y59.278 E14.84738
G1 F1800.000 E13.84738
G92 E0
G1 X71.098 Y59.951 F12000.000
G1 F1800.000 E1.00000
G1 X70.199 Y59.052 F1800.000 E1.02263
G1 X69.506 Y59.052 E1.03495
G1 X71.098 Y60.644 E1.07499
G1 X71.098 Y61.337 E1.08731
G1 X68.813 Y59.052 E1.14477
G1 X68.577 Y59.509 E1.15392
G1 X71.098 Y62.029 E1.21732
G1 X71.098 Y62.722 E1.22963
G1 X68.577 Y60.201 E1.29304
G1 X68.577 Y60.893 E1.30536
G1 X71.098 Y63.414 E1.36876
G1 X71.098 Y64.107 E1.38108
G1 X68.577 Y61.586 E1.44449
G1 X68.577 Y62.278 E1.45680
G1 X71.098 Y64.799 E1.52020
G1 X71.098 Y65.492 E1.53252
G1 X68.577 Y62.971 E1.59593
G1 X68.577 Y63.664 E1.60825
G1 X71.098 Y66.185 E1.67165
G1 X71.098 Y66.877 E1.68396
G1 X68.577 Y64.356 E1.74737
G1 X68.577 Y65.048 E1.75969
G1 X71.098 Y67.569 E1.82309
G1 X71.098 Y68.262 E1.83542
G1 X68.577 Y65.741 E1.89882
G1 X68.577 Y66.433 E1.91113
G1 X71.098 Y68.954 E1.97454
G1 X71.098 Y69.647 E1.98685
G1 X68.577 Y67.126 E2.05026
G1 X68.577 Y67.819 E2.06258
G1 X71.098 Y70.340 E2.12598
G1 X71.098 Y71.032 E2.13829
G1 X68.577 Y68.511 E2.20170
G1 X68.577 Y69.203 E2.21402
G1 X71.098 Y71.724 E2.27742
G1 X71.098 Y72.417 E2.28974
G1 X68.577 Y69.896 E2.35315
G1 X68.577 Y70.589 E2.36547
G1 X71.098 Y73.110 E2.42888
G1 X71.098 Y73.802 E2.44118
G1 X68.577 Y71.281 E2.50459
G1 X68.577 Y71.974 E2.51691
G1 X71.098 Y74.495 E2.58031
G1 X71.098 Y75.187 E2.59263
G1 X68.577 Y72.666 E2.65604
G1 X68.577 Y73.358 E2.66835
G1 X71.098 Y75.879 E2.73175
G1 X71.098 Y76.572 E2.74407
G1 X68.577 Y74.051 E2.80748
G1 X68.577 Y74.744 E2.81980
G1 X71.098 Y77.265 E2.88321
G1 X71.098 Y77.957 E2.89551
G1 X68.577 Y75.436 E2.95892
G1 X68.577 Y76.129 E2.97124
G1 X71.098 Y78.650 E3.03464
G1 X71.098 Y79.342 E3.04697
G1 X68.577 Y76.821 E3.11037
G1 X68.577 Y77.513 E3.12268
G1 X71.098 Y80.034 E3.18608
G1 X71.098 Y80.727 E3.19840
G1 X68.577 Y78.206 E3.26181
G1 X68.577 Y78.899 E3.27413
G1 X71.098 Y81.420 E3.33754
G1 X71.098 Y82.112 E3.34984
G1 X68.577 Y79.591 E3.41325
G1 X68.577 Y80.284 E3.42557
G1 X71.098 Y82.805 E3.48898
G1 X71.098 Y83.497 E3.50129
G1 X68.577 Y80.976 E3.56470
G1 X68.577 Y81.669 E3.57701
G1 X71.098 Y84.189 E3.64041
G1 X71.098 Y84.882 E3.65273
G1 X68.577 Y82.361 E3.71614
G1 X68.577 Y83.054 E3.72846
G1 X71.098 Y85.575 E3.79186
G1 X71.098 Y86.268 E3.80418
G1 X68.577 Y83.747 E3.86759
G1 X68.577 Y84.439 E3.87990
G1 X71.098 Y86.960 E3.94330
G1 X71.098 Y87.653 E3.95562
G1 X68.577 Y85.132 E4.01903
G1 X68.577 Y85.824 E4.03135
G1 X71.098 Y88.345 E4.09475
G1 X71.098 Y89.037 E4.10706
G1 X68.577 Y86.516 E4.17046
G1 X68.577 Y87.209 E4.18279
G1 X71.098 Y89.730 E4.24619
G1 X71.098 Y90.423 E4.25851
G1 X68.577 Y87.902 E4.32192
G1 X68.577 Y88.594 E4.33422
G1 X71.098 Y91.115 E4.39763
G1 X71.098 Y91.808 E4.40995
G1 X68.577 Y89.287 E4.47336
G1 X68.577 Y89.979 E4.48568
G1 X71.098 Y92.500 E4.54908
G1 X71.098 Y93.192 E4.56139
G1 X68.577 Y90.671 E4.62479
G1 X68.577 Y91.364 E4.63711
G1 X71.098 Y93.885 E4.70052
G1 X71.098 Y94.578 E4.71284
G1 X68.577 Y92.057 E4.77624
G1 X68.577 Y92.749 E4.78855
G1 X71.098 Y95.270 E4.85196
G1 X71.098 Y95.963 E4.86428
G1 X68.577 Y93.442 E4.92768
G1 X68.577 Y94.134 E4.94000
G1 X71.098 Y96.655 E5.00341
G1 X71.098 Y97.348 E5.01573
G1 X68.577 Y94.827 E5.07913
G1 X68.577 Y95.519 E5.09144
G1 X71.098 Y98.040 E5.15484
G1 X71.098 Y98.733 E5.16716
G1 X68.577 Y96.212 E5.23057
G1 X68.577 Y96.905 E5.24289
G1 X71.098 Y99.426 E5.30629
G1 X71.098 Y100.118 E5.31860
G1 X68.577 Y97.597 E5.38201
G1 X68.577 Y98.289 E5.39432
G1 X71.098 Y100.810 E5.45773
G1 X71.098 Y101.503 E5.47005
G1 X68.577 Y98.982 E5.53346
G1 X68.577 Y99.674 E5.54576
G1 X71.098 Y102.195 E5.60917
G1 X71.098 Y102.888 E5.62149
G1 X68.577 Y100.367 E5.68489
G1 X68.577 Y101.060 E5.69721
G1 X71.098 Y103.581 E5.76062
G1 X71.098 Y104.273 E5.77293
G1 X68.577 Y101.752 E5.83633
G1 X68.577 Y102.444 E5.84865
G1 X84.096 Y117.963 E6.23897
G1 X83.403 Y117.963 E6.25129
G1 X68.577 Y103.137 E6.62419
G1 X68.577 Y103.829 E6.63650
G1 X82.711 Y117.962 E6.99197
G1 X82.018 Y117.963 E7.00428
G1 X68.577 Y104.522 E7.34235
G1 X68.577 Y105.215 E7.35467
G1 X81.325 Y117.963 E7.67531
G1 X80.632 Y117.963 E7.68763
G1 X68.577 Y105.907 E7.99085
G1 X68.577 Y106.600 E8.00316
G1 X79.941 Y117.963 E8.28897
G1 X79.248 Y117.963 E8.30130
G1 X68.577 Y107.292 E8.56969
G1 X68.577 Y107.985 E8.58201
G1 X78.555 Y117.963 E8.83297
G1 X77.863 Y117.962 E8.84528
G1 X68.577 Y108.677 E9.07883
G1 X68.577 Y109.370 E9.09115
G1 X77.170 Y117.963 E9.30729
G1 X76.477 Y117.963 E9.31961
G1 X68.577 Y110.062 E9.51832
G1 X68.577 Y110.755 E9.53063
G1 X75.785 Y117.962 E9.71192
G1 X75.093 Y117.963 E9.72423
G1 X68.577 Y111.447 E9.88812
G1 X68.577 Y112.140 E9.90044
G1 X74.400 Y117.963 E10.04690
G1 X73.708 Y117.962 E10.05921
G1 X68.577 Y112.832 E10.18825
G1 X68.577 Y113.525 E10.20057
G1 X73.015 Y117.963 E10.31220
G1 X72.323 Y117.963 E10.32452
G1 X68.577 Y114.218 E10.41873
G1 X68.577 Y114.910 E10.43104
G1 X71.630 Y117.962 E10.50783
G1 X70.938 Y117.963 E10.52014
G1 X68.577 Y115.602 E10.57952
G1 X68.577 Y116.295 E10.59184
G1 X70.245 Y117.963 E10.63379
G1 X69.553 Y117.963 E10.64610
G1 X68.577 Y116.987 E10.67064
G1 X68.577 Y117.680 E10.68296
G1 X68.860 Y117.963 E10.69007
G1 F1800.000 E9.69007
G92 E0
G1 X76.677 Y109.852 F12000.000
G1 F1800.000 E1.00000
G1 X84.788 Y117.962 F1800.000 E1.20400
G1 X85.480 Y117.963 E1.21631
G1 X77.369 Y109.852 E1.42031
G1 X78.062 Y109.852 E1.43263
G1 X86.173 Y117.963 E1.63664
G1 X86.866 Y117.962 E1.64895
G1 X78.755 Y109.852 E1.85294
G1 X79.447 Y109.852 E1.86524
G1 X87.558 Y117.963 E2.06925
G1 X88.251 Y117.963 E2.08157
G1 X80.140 Y109.852 E2.28558
G1 X80.833 Y109.852 E2.29790
G1 X88.943 Y117.962 E2.50189
G1 X89.635 Y117.963 E2.51421
G1 X81.525 Y109.853 E2.71820
G1 X82.217 Y109.852 E2.73051
G1 X90.328 Y117.963 E2.93452
G1 X91.021 Y117.962 E2.94683
G1 X82.910 Y109.852 E3.15082
G1 X83.602 Y109.853 E3.16313
G1 X91.713 Y117.963 E3.36712
G1 X92.406 Y117.963 E3.37944
G1 X84.295 Y109.852 E3.58345
G1 X84.988 Y109.852 E3.59578
G1 X93.099 Y117.963 E3.79979
G1 X93.150 Y118.014 F12000.000
G1 X106.851 Y131.715 F1800.000 E4.14438
G1 X106.851 Y132.408 E4.15671
G1 X93.150 Y118.707 E4.50130
G1 X93.149 Y119.399 E4.51362
G1 X106.850 Y133.100 E4.85821
G1 X106.851 Y133.792 E4.87052
G1 X93.150 Y120.092 E5.21512
G1 X93.150 Y120.785 E5.22744
G1 X106.851 Y134.485 E5.57204
G1 X106.851 Y135.178 E5.58437
G1 X93.149 Y121.477 E5.92898
G1 X93.150 Y122.169 E5.94129
G1 X106.851 Y135.870 E6.28589
G1 X106.851 Y136.563 E6.29821
G1 X93.150 Y122.862 E6.64281
G1 X93.149 Y123.554 E6.65512
G1 X106.851 Y137.256 E6.99974
G1 X106.851 Y137.947 E7.01203
G1 X93.150 Y124.247 E7.35663
G1 X93.150 Y124.940 E7.36896
G1 X106.851 Y138.640 E7.71355
G1 X106.851 Y139.333 E7.72588
G1 X93.150 Y125.632 E8.07047
G1 X93.150 Y126.324 E8.08277
G1 X106.851 Y140.025 E8.42737
G1 X106.851 Y140.718 E8.43969
G1 X93.150 Y127.017 E8.78429
G1 X93.150 Y127.710 E8.79661
G1 X106.388 Y140.948 E9.12958
G1 X105.696 Y140.948 E9.14189
G1 X93.150 Y128.402 E9.45744
G1 X93.150 Y129.094 E9.46977
G1 X105.003 Y140.948 E9.76789
G1 X104.311 Y140.948 E9.78021
G1 X93.150 Y129.787 E10.06092
G1 X93.149 Y130.480 E10.07323
G1 X103.618 Y140.948 E10.33653
G1 X102.925 Y140.948 E10.34885
G1 X93.150 Y131.172 E10.59472
G1 X93.150 Y131.865 E10.60704
G1 X102.232 Y140.948 E10.83549
G1 X101.540 Y140.948 E10.84780
G1 X93.149 Y132.557 E11.05885
G1 X93.150 Y133.249 E11.07116
G1 X100.848 Y140.948 E11.26479
G1 X100.155 Y140.948 E11.27711
G1 X93.150 Y133.942 E11.45330
G1 X93.149 Y134.635 E11.46561
G1 X99.463 Y140.948 E11.62441
G1 X98.770 Y140.948 E11.63673
G1 X93.150 Y135.327 E11.77810
G1 X93.150 Y136.020 E11.79042
G1 X98.077 Y140.948 E11.91436
G1 X97.385 Y140.948 E11.92667
G1 X93.149 Y136.712 E12.03322
G1 X93.150 Y137.404 E12.04553
G1 X96.693 Y140.948 E12.13465
G1 X96.000 Y140.948 E12.14698
G1 X93.150 Y138.097 E12.21867
G1 X93.150 Y138.790 E12.23099
G1 X95.308 Y140.948 E12.28527
G1 X94.615 Y140.948 E12.29758
G1 X93.150 Y139.482 E12.33445
G1 X93.150 Y140.175 E12.34677
G1 X93.923 Y140.948 E12.36621
G1 F1800.000 E11.36621
G92 E0
G1 X106.851 Y131.022 F12000.000
G1 F1800.000 E1.00000
G1 X85.680 Y109.852 F1800.000 E1.53246
G1 X86.372 Y109.852 E1.54476
G1 X106.851 Y130.330 E2.05982
G1 X106.851 Y129.638 E2.07214
G1 X87.065 Y109.852 E2.56978
G1 X87.758 Y109.852 E2.58210
G1 X106.851 Y128.945 E3.06231
G1 X106.851 Y128.253 E3.07461
G1 X88.450 Y109.852 E3.53742
G1 X89.142 Y109.852 E3.54974
G1 X106.851 Y127.560 E3.99512
G1 X106.851 Y126.867 E4.00745
G1 X89.835 Y109.852 E4.43540
G1 X90.527 Y109.852 E4.44770
G1 X106.851 Y126.176 E4.85826
G1 X106.851 Y125.483 E4.87059
G1 X91.220 Y109.852 E5.26372
G1 X91.913 Y109.852 E5.27604
G1 X106.851 Y124.790 E5.65174
G1 X106.851 Y124.098 E5.66404
G1 X92.604 Y109.852 E6.02235
G1 X93.297 Y109.852 E6.03467
G1 X106.851 Y123.405 E6.37555
G1 X106.851 Y122.712 E6.38788
G1 X93.990 Y109.852 E6.71133
G1 X94.683 Y109.853 E6.72364
G1 X106.850 Y122.020 E7.02966
G1 X106.851 Y121.328 E7.04197
G1 X95.375 Y109.852 E7.33060
G1 X96.068 Y109.852 E7.34293
G1 X106.851 Y120.635 E7.61413
G1 X106.851 Y119.942 E7.62645
G1 X96.761 Y109.852 E7.88022
G1 X97.452 Y109.852 E7.89252
G1 X106.851 Y119.250 E8.12890
G1 X106.851 Y118.557 E8.14122
G1 X98.145 Y109.852 E8.36017
G1 X98.838 Y109.852 E8.37249
G1 X106.949 Y117.962 E8.57648
G1 X107.641 Y117.963 E8.58879
G1 X99.530 Y109.852 E8.79280
G1 X100.223 Y109.852 E8.80513
G1 X108.334 Y117.963 E9.00914
G1 X109.026 Y117.962 E9.02145
G1 X100.916 Y109.852 E9.22544
G1 X101.607 Y109.852 E9.23774
G1 X109.719 Y117.963 E9.44175
G1 X110.412 Y117.963 E9.45407
G1 X102.300 Y109.852 E9.65808
G1 X102.993 Y109.852 E9.67040
G1 X111.104 Y117.962 E9.87439
G1 X111.796 Y117.963 E9.88670
G1 X103.685 Y109.852 E10.09071
G1 X104.378 Y109.852 E10.10304
G1 X112.489 Y117.963 E10.30705
G1 X113.181 Y117.962 E10.31936
G1 X105.071 Y109.852 E10.52335
G1 X105.763 Y109.853 E10.53566
G1 X113.874 Y117.963 E10.73965
G1 X114.566 Y117.963 E10.75197
G1 X106.455 Y109.852 E10.95598
G1 X107.148 Y109.852 E10.96831
G1 X115.259 Y117.963 E11.17232
G1 X115.951 Y117.963 E11.18461
G1 X107.840 Y109.853 E11.38861
G1 X108.533 Y109.852 E11.40092
G1 X116.644 Y117.963 E11.60493
G1 X117.337 Y117.963 E11.61725
G1 X109.226 Y109.852 E11.82126
G1 X109.919 Y109.852 E11.83358
G1 X118.029 Y117.962 E12.03757
